!!!COM: L van Beethoven
!!!OTL: String Quartet
**kern	**dynam	**kern	**dynam	**kern	**dynam	**kern	**dynam	**mxhm
*part4	*part4	*part3	*part3	*part2	*part2	*part1	*part1	*part1
*staff4	*	*staff3	*	*staff2	*	*staff1	*	*
*I"Violoncello	*	*I"Viola	*	*I"Violin II	*	*I"Violin I	*	*
*I'Vc.	*	*I'Vla.	*	*I'Vln. II	*	*I'Vln. I	*	*
*clefF4	*	*clefC3	*	*clefG2	*	*clefG2	*	*
*k[b-e-a-]	*	*k[b-e-a-]	*	*k[b-e-a-]	*	*k[b-e-a-]	*	*
*E-:	*	*E-:	*	*E-:	*	*E-:	*	*
*M2/2	*	*M2/2	*	*M2/2	*	*M2/2	*	*
*met(c|)	*	*met(c|)	*	*met(c|)	*	*met(c|)	*	*
=1	=1	=1	=1	=1	=1	=1	=1	=1
!	!	!	!	!	!	!LO:TX:a:B:t=Poco Adagio	!	!
!LO:TX:b:i:t=sotto voce	!	!LO:TX:b:i:t=sotto voce	!	!LO:TX:b:i:t=sotto voce	!	!LO:TX:b:i:t=sotto voce	!	!
*MM60	*	*MM60	*	*MM60	*	*MM60	*	*
!	!	!	!	!	!	!LO:TX:a:t=[quarter]=60	!	!
(2E-	.	2B-	.	2g	.	(2ee-	.	.Eb.I
4.D-X	.	(4.B-	.	4.e-	.	4.g	.	V2/IV
8C)	.	8A-)	.	8e-	.	8a-)	.	IV6
=2	=2	=2	=2	=2	=2	=2	=2	=2
4BB-	.	4G	.	4e-	.	4dd-X	.	V43/IV
2r	.	2r	.	2r	.	2r	.	.
4r	.	4r	.	4r	.	4r	.	.
=3	=3	=3	=3	=3	=3	=3	=3	=3
(2E-	.	2B-	.	2g	.	(2ee-	.	I
4.D-X	.	(4.B-	.	4.e-	.	4.g	.	V2/IV
8C)	.	8A-)	.	8e-	.	8a-)	.	IV6
=4	=4	=4	=4	=4	=4	=4	=4	=4
4GG	.	4B-	.	4en	.	[1dd-X	.	viio65/ii
2r	.	2r	.	4r	.	.	.	.
.	.	.	.	[2bb-	.	.	.	.
4r	.	[4en	.	.	.	.	.	.
=5	=5	=5	=5	=5	=5	=5	=5	=5
(2.FF	.	2e]	.	2bb-]	.	2.dd-]	.	.bVII6
.	.	[2f	.	[2aa-	.	.	.	.
4BB-)	.	.	.	.	.	[4ddn	.	V7
=6	=6	=6	=6	=6	=6	=6	=6	=6
(2.EE-	.	(4f]	.	2aa-]	.	2dd]	.	I(+7b64)
.	.	4cc-X	.	.	.	.	.	.
.	.	4b-	.	(4gg	.	(4ee-	.	I
4AAn)	.	4cn)	.	8ffL	.	8ccL	.	V6/V
.	.	.	.	8fJ)	.	8ffJ	.	.
=7	=7	=7	=7	=7	=7	=7	=7	=7
1BB-	.	(2A-	.	(2f	.	4ee-	.	V7(4)
.	.	.	.	.	.	4dd	.	V7
.	.	4.D	.	4a-	.	4cc	.	V7(9)
.	.	.	.	4g)	.	4b-)	.	V(64)
.	.	8E-X)	.	.	.	.	.	.
=8	=8	=8	=8	=8	=8	=8	=8	=8
(2C	.	(4En	.	(4g	.	(4b-	.	V7/ii
.	.	4F	.	8f)	.	8a-)	.	V(64)/ii
.	.	.	.	8r	.	8r	.	.
4.FF	.	4D	.	4B-	.	(4a-	.	V43
.	.	4E-X)	.	8B-	.	8g)	.	I6
8GG)	.	.	.	8r	.	8r	.	.
=9	=9	=9	=9	=9	=9	=9	=9	=9
4AA-X	.	4A-	.	4c	.	([4g	.	ii6(2)
2r	.	2r	.	2r	.	16gLL]	.	.
.	.	.	.	.	.	16f	.	ii6
.	.	.	.	.	.	16en	.	.
.	.	.	.	.	.	16fJJ	.	.
.	.	.	.	.	.	16eLL	.	.
.	.	.	.	.	.	16f	.	.
.	.	.	.	.	.	16g	.	.
.	.	.	.	.	.	16fJJ)	.	.
!LO:TX:b:i:t=cresc.	!	!LO:TX:b:i:t=cresc.	!	!	!	!LO:TX:b:i:t=cresc.	!	!
[4FF	.	[4A-	.	4r	.	(16eenLL	.	ii
.	.	.	.	.	.	16ff	.	.
.	.	.	.	.	.	16gg	.	.
.	.	.	.	.	.	16ffJJ)	.	.
=10	=10	=10	=10	=10	=10	=10	=10	=10
(4FF]	.	4A-]	.	4r	.	4aa-	.	.
!	!	!	!	!LO:TX:b:i:t=cresc.	!	!	!	!
4EE-	.	(4F 4A-	.	(8.fL	.	(4c-X	.	ii%2
.	.	.	.	16gJk	.	.	.	.
8DDL)	.	8FL) 8A-	.	8a-L	.	4B-	.	V65
(8D	.	(8F	.	8f)	.	.	.	.
8E-	.	8G	.	8B-	.	8.b-L	.	I
8GGJ)	.	8E-J)	.	8B-J	.	.	.	.
.	.	.	.	.	.	32a-LL	.	I6
.	.	.	.	.	.	32gJJJ)	.	.
=11	=11	=11	=11	=11	=11	=11	=11	=11
4AA-	p	4E-	p	4c	p	4f	p	ii65
4r	.	4r	.	4r	.	4r	.	.
8r	.	8r	.	8r	.	8r	.	.
!	!	!	!	!LO:TX:b:i:t=espress.	!	!LO:TX:b:i:t=espress.	!	!
(8AA-L	.	8E-L	.	(8cL	.	(8fL	.	.
8BB-	.	8E-	.	8B-	.	8g	.	I64
8CJ	.	8E-J	.	8A-J	.	8a-J	.	IV6
=12	=12	=12	=12	=12	=12	=12	=12	=12
4BB-	.	4E-	.	4B-	.	4g	.	V(64)
4AAn)	.	4E-	.	4c)	.	4f)	.	V65/V
8r	.	8r	.	8r	.	8r	.	.
(8BB-L	.	8E-L	.	(8d-XL	.	(8gL	.	V43/IV
8C	.	8E-	.	8c	.	8a-	.	IV6
8D-XJ	.	8E-J	.	8B-J	.	8b-J	.	V2/IV
=13	=13	=13	=13	=13	=13	=13	=13	=13
4C	.	4E-	.	4c	.	4a-	.	IV6
4BB-)	.	4E-	.	4d-X)	.	4g)	.	V43/IV
!	!LO:DY:a	!	!	!	!LO:DY:a	!	!	!
8GG'	f f	8E-' 8G	.	8e-' 8b-	f f	8G' 8e- 8dd-X	.	V65/IV
4r	.	4r	.	4r	.	4r	.	.
8r	.	8r	.	8r	.	8r	.	.
=14	=14	=14	=14	=14	=14	=14	=14	=14
1r	.	(2c	p	1r	.	4r	.	V/ii
.	.	.	.	.	.	([4cc	p	.
.	.	4.En	.	.	.	16ccLL]	.	V65/ii
.	.	.	.	.	.	16ccc	.	.
.	.	.	.	.	.	16bb-	.	.
.	.	.	.	.	.	16aa-JJ	.	.
.	.	.	.	.	.	16ggLL	.	.
.	.	.	.	.	.	16bb-	.	.
.	.	8F)	.	.	.	16aa-	.	ii
.	.	.	.	.	.	16ffJJ)	.	.
=15	=15	=15	=15	=15	=15	=15	=15	=15
4C	p	4F	.	4a-	p	[1e- [1ee-	.	I64
4r	.	4r	.	4r	.	.	.	.
8r	.	8r	.	8r	.	.	.	.
(8CL	.	(8FL	.	(8a-L	.	.	.	.
8BB-	.	8G	.	8b-	.	.	.	.
8AA-XJ	.	8A-J	.	8ccJ	.	.	.	.
=16	=16	=16	=16	=16	=16	=16	=16	=16
4BB-	.	4G	.	4b-	.	((1e-] 1ee-]	.	V43/IV
4C)	.	4F)	.	4an)	.	.	.	.
8r	.	8r	.	8r	.	.	.	.
(8D-XL	.	(8GL	.	(8b-L	.	.	.	.
8C	.	8A-	.	8cc	.	.	.	.
8BB-J	.	8B-J	.	8dd-XJ	.	.	.	.
=17	=17	=17	=17	=17	=17	=17	=17	=17
4C	.	4A-	.	4cc	.	2e-)) 2ee-	.	V2/IV
4D-X)	.	4G)	.	4b-)	.	.	.	.
8GG'	f	8G' 8e- 8b-	f	8b-' 8bb-	f	8g' 8ee- 8ddd-X	f	V65/IV
4r	.	4r	.	4r	.	4r	.	.
8r	.	8r	.	8r	.	8r	.	.
=18	=18	=18	=18	=18	=18	=18	=18	=18
1r	.	[1A-	p	[1c-X	p	(2cc-X	p	iv
.	.	.	.	.	.	4.d	.	ivo
.	.	.	.	.	.	8e-)	.	iv
=19	=19	=19	=19	=19	=19	=19	=19	=19
1r	.	1A-]	.	1c-]	.	(4.e-	.	.
.	.	.	.	.	.	8f-X)	.	iv(b6)
.	.	.	.	.	.	(4.f-	.	.
.	.	.	.	.	.	8fn)	.	iv(6)
=20	=20	=20	=20	=20	=20	=20	=20	=20
1r	.	1B-	.	1d-X	.	(4.f	.	v
.	.	.	.	.	.	8g-X)	.	v(b6)
.	.	.	.	.	.	(4.g-	.	.
.	.	.	.	.	.	8gn)	.	v(6)
=21	=21	=21	=21	=21	=21	=21	=21	=21
(2AA-	p	(4.B-	.	(4.d-X	.	(4.g	.	iv(97b4)
.	.	8c-X)	.	8e-)	.	8a-)	.	iv
4.DD	.	(4.c-	.	(4.f	.	(4.a-	.	viio7
8EE-)	.	8cn)	.	8g-X)	.	8an)	.	viio43/V
=22	=22	=22	=22	=22	=22	=22	=22	=22
(2E-	.	(4.c	.	(4.g-X	.	(4.an	.	.
.	.	8d-X)	.	8gn)	.	8b-)	.	V7/IV
4.GG	.	(4.f-X	.	(4.d-X	.	(4.b-	.	viio7/IV
8AA-)	.	8e-)	.	8c-X)	.	8cc-X)	.	iv
=23	=23	=23	=23	=23	=23	=23	=23	=23
(2G-X	.	4r	.	2e-	.	(4.cc-X	.	III64/vi
.	.	(4G-X	.	.	.	.	.	.
.	.	.	.	.	.	8ccn)	.	.
4.AAn	.	[2Gn)	.	[2en	.	[2dd-X	.	viio43/ii
8BB-)	.	.	.	.	.	.	.	.
=24	=24	=24	=24	=24	=24	=24	=24	=24
!LO:TX:b:i:t=cresc.	!	!LO:TX:b:i:t=cresc.	!	!LO:TX:b:i:t=cresc.	!	!LO:TX:b:i:t=cresc.	!	!
2BB-	.	(4.G]	.	(4.e]	.	(4.dd-]	.	.
.	.	8A-)	.	8f)	.	8ddn)	.	V7
(4.BB-	.	(4.A-	.	[4.B- 4.f	.	(4.dd	.	.
8E-)	.	8G)	.	8B-] 8e-X	.	8ee-)	.	I
=25||	=25||	=25||	=25||	=25||	=25||	=25||	=25||	=25||
*M4/4	*	*M4/4	*	*M4/4	*	*M4/4	*	*
*met(c)	*	*met(c)	*	*met(c)	*	*met(c)	*	*
!	!	!	!	!	!	!LO:TX:a:B:t=Allegro	!	!
*MM120	*	*MM120	*	*MM120	*	*MM120	*	*
!	!	!	!	!	!	!LO:TX:a:t=[quarter]=120	!	!
4EE-	f	4E- 4G	f	4B- 4e-	f	4G 4e- 4ee-	f	I\\
4r	.	4r	.	4r	.	4r	.	.
4E-'	.	4G'	.	4B-'	.	4e-'	.	I
4E-'	.	4G'	.	4B-'	.	4g'	.	.
=26	=26	=26	=26	=26	=26	=26	=26	=26
4D'	.	4F'	.	4B-'	.	4b-'	.	V6
4r	.	4r	.	4r	.	4r	.	.
!	!	!	!LO:DY:a	!	!	!	!	!
2r	.	2r	p	8r	.	2r	.	.
.	.	.	.	(8B-L	.	.	.	.
.	.	.	.	8c	.	.	.	.
.	.	.	.	8dJ)	.	.	.	.
=27	=27	=27	=27	=27	=27	=27	=27	=27
.	.	.	.	8qf/	.	.	.	.
1r	.	1r	.	(8e-L	.	2r	.	I
.	.	.	.	8d	.	.	.	.
.	.	.	.	8e-	.	.	.	.
.	.	.	.	8gJ	.	.	.	.
.	.	.	.	8fL	.	[2bb-	p	V43
.	.	.	.	8e-	.	.	.	.
.	.	.	.	8f	.	.	.	.
.	.	.	.	8a-J	.	.	.	.
=28	=28	=28	=28	=28	=28	=28	=28	=28
[1EE-	p	(2E-	p	8gL	.	(4bb-]	.	I[I
.	.	.	.	8f	.	.	.	.
.	.	.	.	8g	.	8ggL	.	.
.	.	.	.	8b-J	.	8aa-J	.	.
.	.	2G	.	8e-L	.	4bb-	.	I6
.	.	.	.	8d	.	.	.	.
.	.	.	.	8e-	.	4dd-X)	.	V65/IV
.	.	.	.	8b-J	.	.	.	.
=29	=29	=29	=29	=29	=29	=29	=29	=29
1EE-_	.	2A-	.	8e-L	.	2cc	.	IV
.	.	.	.	8d	.	.	.	.
.	.	.	.	8e-	.	.	.	.
.	.	.	.	8ccJ	.	.	.	.
.	.	2c	.	8e-L	.	4.aa-	.	IV6
.	.	.	.	8d	.	.	.	.
.	.	.	.	8e-	.	.	.	.
.	.	.	.	8a-J	.	8gg	.	.
=30	=30	=30	=30	=30	=30	=30	=30	=30
.	.	.	.	16qqg/	.	.	.	.
1EE-_	.	2d	.	8fL	.	4.ff	.	viio
.	.	.	.	8en	.	.	.	.
.	.	.	.	8f	.	.	.	.
.	.	.	.	8a-J	.	8ccc	.	.
.	.	2B-)	.	8dL	.	4.bb-	.	V7
.	.	.	.	8c#X	.	.	.	.
.	.	.	.	8d	.	.	.	.
.	.	.	.	8fJ	.	8aa-	.	.
=31	=31	=31	=31	=31	=31	=31	=31	=31
2EE-_	.	4e-	.	8B-L	.	(4ff#X	.	I(#9)
.	.	.	.	8An	.	.	.	.
.	.	4r	.	8B-	.	4gg)	.	I]
.	.	.	.	8e-XJ	.	.	.	.
8EE-L]	.	[2B-	.	8g'L)	.	2r	.	I
(8E-	.	.	.	(8g	.	.	.	.
8BB-	.	.	.	8e-	.	.	.	.
8GGJ)	.	.	.	8B-J)	.	.	.	.
=32	=32	=32	=32	=32	=32	=32	=32	=32
!LO:TX:b:i:t=cresc.	!	!	!	!	!	!	!	!
(2EE-	.	4B-]	.	(4G	.	4r	.	.
!	!	!	!	!LO:TX:a:i:t=cresc.	!	!LO:TX:b:i:t=cresc.	!	!
.	.	(8GL	.	2e-)	.	(2gg	.	I6
.	.	8A-J	.	.	.	.	.	.
2GG	.	4B-	.	.	.	.	.	.
.	.	4D-X)	.	[4e-	.	8aa-L	.	V65/IV
.	.	.	.	.	.	8bb-J)	.	.
=33	=33	=33	=33	=33	=33	=33	=33	=33
2AA-	.	2C	.	2e-]	.	[1ccc	.	ii7
2FF)	.	4.A-	.	[2ee-	.	.	.	.
.	.	8G	.	.	.	.	.	.
=34	=34	=34	=34	=34	=34	=34	=34	=34
2BB-	.	4.F	.	2ee-]	.	2ccc]	.	V(94)
.	.	8c	.	.	.	.	.	.
2BB-	.	(8B-L	.	2ff	.	2ddd	.	V7
.	.	8A-)	.	.	.	.	.	.
.	.	8G'	.	.	.	.	.	.
.	.	8F'J	.	.	.	.	.	.
=35	=35	=35	=35	=35	=35	=35	=35	=35
4EE-	p	4E-	p	8ggL	p	8eee-L	p	I\\
.	.	.	.	8ee- 8gg	.	8bb-	.	.
4r	.	4r	.	8ee- 8gg	.	8bb-	.	.
.	.	.	.	8ee-J 8gg	.	8bb-J	.	.
!	!	!LO:TX:a:t=pizz.	!	!	!	!	!	!
2r	.	4E-	.	8ee-L 8gg	.	8bb-L	.	.
.	.	.	.	8ee- 8gg	.	8bb-	.	.
.	.	4G	.	8ee- 8gg	.	8bb-	.	.
.	.	.	.	8ee-J 8gg	.	8bb-J	.	.
=36	=36	=36	=36	=36	=36	=36	=36	=36
!LO:TX:a:t=pizz.	!	!	!	!	!	!	!	!
4BB-	.	2r	.	8ddL 8ff	.	8bb-L	.	V
.	.	.	.	8dd 8ff	.	8bb-	.	.
4D	.	.	.	8dd 8ff	.	8bb-	.	.
.	.	.	.	8ddJ 8ff	.	8bb-J	.	.
2r	.	4F	.	8ffL	.	8ccL 8aa-	.	ii
.	.	.	.	8ff	.	8cc 8aa-	.	.
.	.	4A-	.	8ff	.	8cc 8aa-	.	ii6
.	.	.	.	8ffJ	.	8ccJ 8aa-	.	.
=37	=37	=37	=37	=37	=37	=37	=37	=37
4C	.	2r	.	8ee-L	.	8ccL 8gg	.	vi
.	.	.	.	8ee-	.	8cc 8gg	.	.
4E-	.	.	.	8ee-	.	8cc 8gg	.	.
.	.	.	.	8ee-J	.	8ccJ 8gg	.	.
2r	.	4A-	.	8ee-L	.	8ccL 8ff	.	ii65
.	.	.	.	8ee-	.	8cc 8ff	.	.
.	.	4c	.	8ee-	.	8cc 8ff	.	ii43
.	.	.	.	8ee-J	.	8ccJ 8ff	.	.
=38	=38	=38	=38	=38	=38	=38	=38	=38
4r	.	4e-	.	8ee-L	.	8b-L 8gg	.	I
.	.	.	.	8ee-	.	8b- 8gg	.	.
4E-	.	4r	.	8ee-	.	8b- 8gg	.	.
.	.	.	.	8ee-J	.	8b-J 8gg	.	.
4r	.	4B-	.	8ddL 8ff	.	8b-L 8aa-	.	V7
.	.	.	.	8dd 8ff	.	8b- 8aa-	.	.
4BB-	.	4r	.	8dd 8ff	.	8b- 8aa-	.	.
.	.	.	.	8ddJ 8ff	.	8b-J 8aa-	.	.
=39	=39	=39	=39	=39	=39	=39	=39	=39
!	!	!LO:TX:a:t=arco	!	!	!	!	!	!
4EE-	.	8E-	.	8ee-L	.	4b- 4gg	.	I\\
.	.	8e-L	.	8g	.	.	.	.
4r	.	8e-	.	8g	.	4r	.	I
.	.	8e-J	.	8gJ	.	.	.	.
!LO:TX:a:t=arco	!	!	!	!	!	!LO:TX:a:t=pizz.	!	!
8e-L	.	8gL	.	2r	.	4ee-	.	.
8e-	.	8g	.	.	.	.	.	.
8e-	.	8g	.	.	.	4gg	.	.
8e-J	.	8gJ	.	.	.	.	.	.
=40	=40	=40	=40	=40	=40	=40	=40	=40
!	!	!	!	!LO:TX:a:t=pizz.	!	!	!	!
8d-XL	.	8fL	.	4b-	.	2r	.	iv6/ii
8d-	.	8f	.	.	.	.	.	.
8d-	.	8f	.	4dd-X	.	.	.	.
8d-J	.	8fJ	.	.	.	.	.	.
*clefC4	*	*	*	*	*	*	*	*
8a-L	.	8cL 8f	.	2r	.	4ff	.	ii64
8a-	.	8c 8f	.	.	.	.	.	.
8a-	.	8c 8f	.	.	.	4aa-	.	.
8a-J	.	8cJ 8f	.	.	.	.	.	.
=41	=41	=41	=41	=41	=41	=41	=41	=41
8gL	.	8cL 8e-	.	4cc	.	2r	.	vi
8g	.	8c 8e-	.	.	.	.	.	.
8g	.	8c 8e-	.	4ee-	.	.	.	.
8gJ	.	8cJ 8e-	.	.	.	.	.	.
*clefF4	*	*	*	*	*	*	*	*
8A-L	.	8cL 8f	.	2r	.	4aa-	.	ii6
8A-	.	8c 8f	.	.	.	.	.	.
8A-	.	8c 8f	.	.	.	4ccc	.	.
8A-J	.	8cJ 8f	.	.	.	.	.	.
=42	=42	=42	=42	=42	=42	=42	=42	=42
8GL	.	8B-L 8e-	.	4r	.	4eee-	.	I6
8G	.	8B- 8e-	.	.	.	.	.	.
8G	.	8B- 8e-	.	4ee-	.	4r	.	.
8GJ	.	8B-J 8e-	.	.	.	.	.	.
8G-XL	.	8B-L 8e-	.	4r	.	4bb-	.	V.iv6
8G-	.	8B- 8e-	.	.	.	.	.	.
8G-	.	8B- 8e-	.	4b-	.	4r	.	.
8G-J	.	8B-J 8e-	.	.	.	.	.	.
=43	=43	=43	=43	=43	=43	=43	=43	=43
!	!	!	!	!	!	!LO:TX:a:t=arco	!	!
4FF	f	4An 4f	f	4r	.	4ff 4fff	f	V\\
!	!	!	!	!LO:TX:a:t=arco	!	!	!	!
4r	.	4r	.	4an' 4ff	f	4r	.	.
2r	.	[2g-X	p	2r	.	2r	.	.
=44	=44	=44	=44	=44	=44	=44	=44	=44
(2e-	p	(2g-]	.	(2an	p	(2cc	p	viio43
2en)	.	2gn)	.	2b-)	.	2dd-X)	.	viio7/V
=45	=45	=45	=45	=45	=45	=45	=45	=45
4FF	f	4F 4An	f	4an	f	4ff 4fff	f	V
4r	.	4r	.	4a' 4ff	.	4r	.	.
2r	.	[2g-X	p	2r	.	2r	.	.
=46	=46	=46	=46	=46	=46	=46	=46	=46
!LO:TX:a:i:t=cresc	!	!LO:TX:a:i:t=cresc.	!	!	!	!	!	!
(1e-X	.	1g-]	.	(1an	p	(1cc	p	viio43
=47	=47	=47	=47	=47	=47	=47	=47	=47
1en)	.	1g	.	1b-)	.	1dd-X)	.	viio/V
=48	=48	=48	=48	=48	=48	=48	=48	=48
[2e-X	sf >	[2f [2an	sf >	[2cc	sf >	[2gg	sf >	V2(9)
8e-L]	.	8fL] 8a]	.	8ccL]	.	(8ggL]	.	.
8e-	.	8f 8a	.	8cc	.	8ff)	.	.
8e-'	] p	8f'	] p	8an'	] p	8cc'	] p	.
8d'J	.	8f'J	.	8b-'J	.	8dd'J	.	I6
=49	=49	=49	=49	=49	=49	=49	=49	=49
8cL	.	8e-L	.	8ccL	.	8ee-L	.	ii
8F	.	8c	.	8e-	.	8g	.	.
8F	.	8c	.	8e-	.	8an	.	V7
8FJ	.	8FJ	.	8e-J	.	8fJ	.	.
8BB-L	.	8FL	.	8dL	.	8b-L	.	I
8BB-	.	8F	.	8d	.	8f	.	.
8FF	.	8F	.	8An	.	8cc	.	V
8FFJ	.	8FJ	.	8AJ	.	8fJ	.	.
=50	=50	=50	=50	=50	=50	=50	=50	=50
4BB-	.	8B-	.	4f	.	4dd	.	I\\
!	!	!LO:TX:b:i:t=cresc.	!	!	!	!	!	!
.	.	(4f	.	.	.	.	.	.
4r	.	.	.	4r	.	4r	.	I
.	.	8f#X)	.	.	.	.	.	.
2r	.	(8gL	.	8r	.	4r	.	V
!	!	!	!	!LO:TX:b:i:t=cresc.	!	!	!	!
.	.	8fn)	.	4an	.	.	.	.
.	.	8c'	.	.	.	8r	.	.
!	!	!	!	!	!	!LO:TX:b:i:t=cresc.	!	!
.	.	8d'J	.	8bn	.	[8gg	.	V64/ii
=51	=51	=51	=51	=51	=51	=51	=51	=51
8r	.	8e-'L	.	8cc'L	.	(8gg]	.	ii6
!LO:TX:b:i:t=cresc.	!	!	!	!	!	!	!	!
4EE-	.	8G'	.	8g'	.	4ff)	.	V2
.	.	8An'	.	8an'	.	.	.	.
8EE-	.	8F'J	.	8f'J	.	8ccc'	.	.
8DD'L	.	8B-'L	.	8b-X'L	.	8ff'L	.	I6
8DD'	.	8F'	.	8f'	.	8ddd'	.	.
8AAn'	.	8c'	.	8cc'	.	8ff'	.	V65
8AA'J	.	8F'J	.	8f'J	.	8eee-'J	.	.
=52	=52	=52	=52	=52	=52	=52	=52	=52
4BB-	p	[2B-	p	8ddL	p	8dddL	p	I
.	.	.	.	8dd	.	8ff	.	.
4r	.	.	.	8dd	.	8ff	.	.
.	.	.	.	8ddJ	.	8ffJ	.	.
2r	.	(16B-LL]	.	4dd	.	4ff	.	.
.	.	16An	.	.	.	.	.	.
.	.	16G	.	.	.	.	.	.
.	.	16FJJ	.	.	.	.	.	.
.	.	16GLL	.	4r	.	4r	.	.
.	.	16A	.	.	.	.	.	.
.	.	16B-	.	.	.	.	.	.
.	.	16cJJ)	.	.	.	.	.	.
=53	=53	=53	=53	=53	=53	=53	=53	=53
[2B-	.	[2d	.	8r	.	8r	.	I6
.	.	.	.	8ddL	.	8bb-L	.	.
.	.	.	.	8dd	.	8bb-	.	.
.	.	.	.	8ddJ	.	8bb-J	.	.
(16B-LL]	.	(16dLL]	.	4dd	.	4bb-	.	.
16An	.	16c	.	.	.	.	.	.
16G	.	16B-	.	.	.	.	.	.
16FJJ	.	16AnJJ	.	.	.	.	.	.
16GLL	.	16B-LL	.	4r	.	4r	.	.
16A	.	16c	.	.	.	.	.	.
16B-	.	16d	.	.	.	.	.	.
16cJJ)	.	16e-JJ)	.	.	.	.	.	.
=54	=54	=54	=54	=54	=54	=54	=54	=54
(16dLL	.	(16fLL	.	[2b-	.	2r	.	I64
16e-	.	16g	.	.	.	.	.	.
16f	.	16an	.	.	.	.	.	.
16gJJ	.	16b-JJ	.	.	.	.	.	.
16fLL	.	16aLL	.	.	.	.	.	.
16e-	.	16g	.	.	.	.	.	.
16d	.	16f	.	.	.	.	.	.
16cJJ	.	16e-JJ)	.	.	.	.	.	.
8B-)	.	(16dLL	.	(16b-LL]	.	[2bb-	.	.
.	.	16e-	.	16an	.	.	.	.
8r	.	16f	.	16g	.	.	.	.
.	.	16gJJ	.	16fJJ	.	.	.	.
4r	.	16fLL	.	16gLL	.	.	.	.
.	.	16e-	.	16a	.	.	.	.
.	.	16d	.	16b-	.	.	.	.
.	.	16cJJ	.	16ccJJ)	.	.	.	.
=55	=55	=55	=55	=55	=55	=55	=55	=55
1r	.	8B-)	.	(16ddLL	.	(16bb-LL]	.	I
.	.	.	.	16ee-	.	16aan	.	.
.	.	8r	.	16ff	.	16gg	.	.
.	.	.	.	16ggJJ	.	16ffJJ	.	.
.	.	4r	.	16ffLL	.	16ggLL	.	.
.	.	.	.	16ee-	.	16aa	.	.
.	.	.	.	16dd	.	16bb-	.	.
.	.	.	.	16ccJJ	.	16cccJJ)	.	.
.	.	(16FLL	.	8b-)	.	(16dddLL	.	.
.	.	16G	.	.	.	16ccc	.	.
.	.	16An	.	8r	.	16bb-	.	.
.	.	16B-JJ	.	.	.	16aaJJ	.	.
.	.	16ALL	.	4r	.	16bb-LL	.	.
.	.	16G	.	.	.	16ccc	.	.
.	.	16F	.	.	.	16ddd	.	.
.	.	16E-JJ	.	.	.	16eee-JJ)	.	.
=56	=56	=56	=56	=56	=56	=56	=56	=56
!	!	!	!	!	!	!LO:TX:b:i:t=cresc.	!	!
(16DLL	.	8D)	.	1r	.	(4fff'	.	I6
16E-	.	.	.	.	.	.	.	.
16F	.	8r	.	.	.	.	.	.
16GJJ	.	.	.	.	.	.	.	.
!LO:TX:b:i:t=cresc.	!	!	!	!	!	!	!	!
16FLL	.	4r	.	.	.	4ggg'	.	.
16E-	.	.	.	.	.	.	.	.
16D	.	.	.	.	.	.	.	.
16CJJ)	.	.	.	.	.	.	.	.
8BB-L	.	2r	.	.	.	4aaan'	.	.
8AAn'	.	.	.	.	.	.	.	.
8GG'	.	.	.	.	.	4bbb-')	.	.
8FF'J	.	.	.	.	.	.	.	.
=57	=57	=57	=57	=57	=57	=57	=57	=57
(2.EEn	.	4r	.	4r	.	(4bbb-	.	V65/V
!	!	!LO:TX:a:i:t=cresc.	!	!LO:TX:a:i:t=cresc.	!	!	!	!
.	.	(2G	.	(2c	.	2b-)	.	.
4EE-X)	.	4G-X)	.	4An)	.	(12ccL	.	viio43
.	.	.	.	.	.	12dd	.	.
.	.	.	.	.	.	12ee-J)	.	.
=58	=58	=58	=58	=58	=58	=58	=58	=58
4DD	p	4F	p	4f	p	(2.ff	p	I6
4r	.	4r	.	4r	.	.	.	.
(16DLL	.	2r	.	2r	.	.	.	.
16E-	.	.	.	.	.	.	.	.
16F	.	.	.	.	.	.	.	.
16GJJ	.	.	.	.	.	.	.	.
16FLL	.	.	.	.	.	4aa-X	.	viio43/ii
16E-	.	.	.	.	.	.	.	.
16D	.	.	.	.	.	.	.	.
16CJJ	.	.	.	.	.	.	.	.
=59	=59	=59	=59	=59	=59	=59	=59	=59
8BBn)	.	(16BnLL	.	(2.f	.	4gg	.	V65/ii
.	.	16c	.	.	.	.	.	.
8r	.	16d	.	.	.	.	.	.
.	.	16e-JJ	.	.	.	.	.	.
4r	.	16dLL	.	.	.	4ddd	.	.
.	.	16c	.	.	.	.	.	.
.	.	16B	.	.	.	.	.	.
.	.	16AnJJ	.	.	.	.	.	.
2r	.	8G)	.	.	.	4dd	.	.
.	.	8r	.	.	.	.	.	.
.	.	4r	.	4bn	.	4gg	.	.
=60	=60	=60	=60	=60	=60	=60	=60	=60
2r	.	1r	.	4g	.	4ff	.	.
.	.	.	.	4cc	.	2ee-	.	ii
(16CLL	.	.	.	4c)	.	.	.	.
16D	.	.	.	.	.	.	.	.
16E-	.	.	.	.	.	.	.	.
16FJJ	.	.	.	.	.	.	.	.
16E-LL	.	.	.	4r	.	4gg	.	.
16D	.	.	.	.	.	.	.	.
16C	.	.	.	.	.	.	.	.
16BB-XJJ	.	.	.	.	.	.	.	.
=61	=61	=61	=61	=61	=61	=61	=61	=61
8AAn)	.	(16AnLL	.	8r	.	4ff	.	V6
.	.	16B-X	.	.	.	.	.	.
8r	.	16c	.	(8gL	.	.	.	.
.	.	16dJJ	.	.	.	.	.	.
4r	.	16cLL	.	8f	.	4ccc	.	.
.	.	16B-	.	.	.	.	.	.
.	.	16A	.	[8ccJ	.	.	.	.
.	.	16GJJ	.	.	.	.	.	.
(16AALL	.	8F)	.	8ccL])	.	4cc	.	V65
16BB-	.	.	.	.	.	.	.	.
16C	.	8r	.	(8e-	.	.	.	.
16DJJ	.	.	.	.	.	.	.	.
16E-LL	.	4r	.	8c	.	4ff)	.	.
16F	.	.	.	.	.	.	.	.
16G	.	.	.	8fJ)	.	.	.	.
16AnJJ)	.	.	.	.	.	.	.	.
=62	=62	=62	=62	=62	=62	=62	=62	=62
!LO:TX:b:i:t=cresc.	!	!	!	!LO:TX:b:i:t=cresc.	!	!LO:TX:b:i:t=cresc.	!	!
2.B-	.	4r	.	(16B-XLL	.	(4ee-	.	I(4)
.	.	.	.	16c	.	.	.	.
.	.	.	.	16B-	.	.	.	.
.	.	.	.	16cJJ	.	.	.	.
!	!	!LO:TX:b:i:t=cresc.	!	!	!	!	!	!
.	.	(16B-LL	.	16dLL	.	2dd)	.	I
.	.	16c	.	16e-	.	.	.	.
.	.	16B-	.	16d	.	.	.	.
.	.	16cJJ	.	16e-JJ	.	.	.	.
.	.	16dLL	.	16fLL	.	.	.	.
.	.	16e-	.	16g	.	.	.	.
.	.	16d	.	16f	.	.	.	.
.	.	16e-JJ)	.	16gJJ)	.	.	.	.
4B-	.	8f'L	.	8a-'L	.	4dd 4ddd	.	V7/IV
.	.	8f'J	.	8a-'J	.	.	.	.
=63	=63	=63	=63	=63	=63	=63	=63	=63
2An	.	2f#X	.	2an	.	[1dd [1ddd	.	V7/ii
2G	.	2fn	.	([2bn	.	.	.	.
=64	=64	=64	=64	=64	=64	=64	=64	=64
4C	.	4e-	.	8bL]	.	(8ddL] 8ddd]	.	ii
.	.	.	.	8cc)	.	8ccc)	.	.
(2E-	.	(2c	.	(8dd'	.	(8ddd'	.	ii6
.	.	.	.	8ee-'J)	.	8eee-'J)	.	.
.	.	.	.	(4g	.	(4gg'	.	.
4En)	.	4d-X)	.	4an)	.	4aan')	.	#viio(+4)
=65	=65	=65	=65	=65	=65	=65	=65	=65
2F	.	8dn'L	.	2b-X	.	2bb-	.	V(64)
.	.	(8d	.	.	.	.	.	.
.	.	8e-	.	.	.	.	.	.
.	.	8fJ)	.	.	.	.	.	.
2FF	.	(8e-L	.	4.an	.	4.ccc	.	V7
.	.	8c)	.	.	.	.	.	.
.	.	8An'	.	.	.	.	.	.
.	.	8E-'J	.	8a	.	8f	.	.
=66	=66	=66	=66	=66	=66	=66	=66	=66
2.BB-	p	4D	p	4b-	p	(16B-LL	p	I\\
.	.	.	.	.	.	16c	.	.
.	.	.	.	.	.	16B-	.	I
.	.	.	.	.	.	16cJJ	.	.
!	!	!LO:TX:a:i:t=cresc.	!	!LO:TX:b:i:t=cresc.	!	!LO:TX:b:i:t=cresc.	!	!
.	.	2D 2d	.	(16B-LL	.	16dLL	.	.
.	.	.	.	16c	.	16e-	.	.
.	.	.	.	16B-	.	16d	.	.
.	.	.	.	16cJJ	.	16e-JJ	.	.
.	.	.	.	16dLL	.	16fLL	.	.
.	.	.	.	16e-	.	16g	.	.
.	.	.	.	16d	.	16f	.	.
.	.	.	.	16e-JJ)	.	16gJJ)	.	.
4BB-	.	4D 4d	.	8f'L	.	8a-'L	.	V7/IV
.	.	.	.	8f'J	.	8a-'J	.	.
=67	=67	=67	=67	=67	=67	=67	=67	=67
2AAn	.	[1D [1d	.	2f#X	.	2an	.	V64/vi
2GG	.	.	.	2fn	.	2bn	.	V7/ii
=68	=68	=68	=68	=68	=68	=68	=68	=68
(8CCL	.	8DL] 8d]	.	4e-	.	4cc	.	ii
8C	.	(8c	.	.	.	.	.	.
8BBn	.	8Bn	.	4cc	.	4ee-	.	.
8CJ	.	8cJ	.	.	.	.	.	.
8DL	.	8dL	.	4r	.	4r	.	.
8E-	.	8e-	.	.	.	.	.	.
8GG	.	8G	.	4ee-	.	4ccc	.	.
8CJ)	.	8cJ)	.	.	.	.	.	.
=69	=69	=69	=69	=69	=69	=69	=69	=69
(8CL	.	(8cL	.	4r	.	4r	.	.
8BB-X	.	8B-X	.	.	.	.	.	.
8FF	.	8F	.	4b-	.	4ddd	.	V(64)
8GGJ	.	8GJ	.	.	.	.	.	.
8FFL	.	8FL	.	4r	.	4r	.	.
8GG)	.	8G)	.	.	.	.	.	.
8FF'	.	8F'	.	4an	.	4fff	.	V
8FF'J	.	8F'J	.	.	.	.	.	.
=70	=70	=70	=70	=70	=70	=70	=70	=70
[2BB-	f	[2F'	f	[2b-	f	[2dd	f	I\\
8BB-L]	.	8FL]	.	8b-L]	.	8ddL]	.	.
8AAn	sf	8f	sf	8cc	sf	8ff	sf	V6
8BB-	.	8F	.	8b-	.	8dd	.	I
8BB-J	.	8FJ	.	8b-J	.	8ddJ	.	.
=71	=71	=71	=71	=71	=71	=71	=71	=71
8BB-L	.	8FL	.	8b-L	.	8ddL	.	.
8AAn	sf	8f	sf	8cc	sf	8ff	sf	V6
8BB-	.	8F	.	8b-	.	8dd	.	I
8BB-J	.	8FJ	.	8b-J	.	8ddJ	.	.
8BB-L	.	8FL	.	8b-L	.	8ddL	.	.
8FF	sf	8f	sf	8cc	sf	8ee-	sf	V7
8FF	.	8F	.	8an	.	8cc	.	.
8FFJ	.	8FJ	.	8aJ	.	8ccJ	.	.
=72	=72	=72	=72	=72	=72	=72	=72	=72
(8FFL	.	(8FL	.	(8anL	.	(8ccL	.	.
8BB-J)	.	8B-J)	.	8b-J)	.	8ddJ)	.	I
4BB-	.	4B-	.	4b-	.	4dd	.	.
8r	.	8r	.	8r	.	8r	.	.
!LO:TX:b:i:t=dim.	!	!LO:TX:b:i:t=dim.	!	!LO:TX:b:i:t=dim.	!	!LO:TX:b:i:t=dim.	!	!
8FFL	.	8FL	.	8cL	.	8e-L	.	V7
8FF	.	8F	.	8An	.	8c	.	.
8FFJ	.	8FJ	.	8AJ	.	8cJ	.	.
=73	=73	=73	=73	=73	=73	=73	=73	=73
(8FFL	p	4F	p	(8AnL	p	(8cL	p	.
8BB-J)	.	.	.	8B-J)	.	8dJ)	.	I
4BB-	.	4F	.	4B-	.	4d	.	.
8r	.	8r	.	8r	.	8r	.	.
8FFL	.	8FL	.	8cL	.	8e-L	.	V7
8FF	.	8F	.	8A	.	8c	.	.
8BB-J	.	8FJ	.	8B-J	.	8dJ	.	I
=74	=74	=74	=74	=74	=74	=74	=74	=74
4BB-	.	4F	.	4B-	.	4d	.	.
4r	.	4r	.	4r	.	4r	.	.
4BB-	.	4F	.	4B-	.	4d	.	.
4r	.	4r	.	4r	.	4r	.	.
=75	=75	=75	=75	=75	=75	=75	=75	=75
(4BB-'	.	(4F'	.	(4B-'	.	(4d'	.	.
4BB-'	.	4F'	.	4B-'	.	4d'	.	.
4BB-'	.	4F'	.	4B-'	.	4d'	.	.
4BB-')	.	4F')	.	4B-')	.	4d')	.	.
=76	=76	=76	=76	=76	=76	=76	=76	=76
1BB-	pp	1F	pp	1B-	pp	1d	pp	.
=77	=77	=77	=77	=77	=77	=77	=77	=77
1BB-	.	1F	.	1B-	.	1d	.	.
=78:|!	=78:|!	=78:|!	=78:|!	=78:|!	=78:|!	=78:|!	=78:|!	=78:|!
4GG	f f	4G 4g	f	4G 4d 4bn	.	4G 4d 4bn 4gg	f	vi.V
4r	.	4r	.	4r	.	4r	.	.
4G'	.	4d'	.	4Bn'	.	4g'	.	.
4G'	.	4Bn'	.	4g'	.	4b'	.	.
=79	=79	=79	=79	=79	=79	=79	=79	=79
4F#X'	.	4An'	.	4d'	.	4dd'	.	V6/V
4r	.	4r	.	4r	.	4r	.	.
2r	.	8r	.	2r	.	2r	.	.
.	.	(8DL	pp	.	.	.	.	.
.	.	8En	.	.	.	.	.	.
.	.	8F#XJ)	.	.	.	.	.	.
=80	=80	=80	=80	=80	=80	=80	=80	=80
1r	.	(8GL	.	2r	.	1r	.	V
.	.	8F#X	.	.	.	.	.	.
.	.	8G	.	.	.	.	.	.
.	.	8BnJ	.	.	.	.	.	.
.	.	8AnL	.	[2dd	p	.	.	.
.	.	8G	.	.	.	.	.	.
.	.	8A	.	.	.	.	.	.
.	.	8cJ)	.	.	.	.	.	.
=81	=81	=81	=81	=81	=81	=81	=81	=81
4G	p	(8BnL	.	(4dd]	.	2r	.	.
.	.	8An	.	.	.	.	.	.
4r	.	8B	.	8bnL	.	.	.	.
.	.	8dJ	.	8ccJ	.	.	.	.
4BBn'	.	8GL	.	4dd	.	[2gg	p	V65
.	.	8d	.	.	.	.	.	.
4G'	.	8B	.	4f)	.	.	.	.
.	.	8dJ)	.	.	.	.	.	.
=82	=82	=82	=82	=82	=82	=82	=82	=82
4C	.	4G	.	4e-	.	(4gg]	.	i
4r	.	4r	.	4r	.	8ee-L	.	.
.	.	.	.	.	.	8ffJ	.	.
8r	.	2r	.	2r	.	4gg	.	.
((8GGL	.	.	.	.	.	.	.	.
8AAn	.	.	.	.	.	4cc)	.	.
8BBnJ)	.	.	.	.	.	.	.	.
=83	=83	=83	=83	=83	=83	=83	=83	=83
(8CL	.	1r	.	2r	.	1r	.	VII6
8BBn	.	.	.	.	.	.	.	.
8C	.	.	.	.	.	.	.	.
8E-J)	.	.	.	.	.	.	.	.
(8DL	.	.	.	[2b-X	.	.	.	.
8C	.	.	.	.	.	.	.	.
8D	.	.	.	.	.	.	.	.
8FJ))	.	.	.	.	.	.	.	.
=84	=84	=84	=84	=84	=84	=84	=84	=84
[1En [1G	.	(8GL	.	(4b-]	.	2r	.	viio/iv
.	.	8F#X	.	.	.	.	.	.
.	.	8G	.	8gL	.	.	.	.
.	.	8B-XJ)	.	8a-J	.	.	.	.
.	.	(8GL	.	4b-	.	(4bb-	p	.
.	.	8F#	.	.	.	.	.	.
.	.	8G	.	4d-X)	.	8ggL	.	.
.	.	8B-J)	.	.	.	8aa-J	.	.
=85	=85	=85	=85	=85	=85	=85	=85	=85
1E_ 1G_	.	(8GL	.	(4b-	.	4bb-	.	.
.	.	8F#X	.	.	.	.	.	.
.	.	8G	.	8gL	.	4dd-X)	.	.
.	.	8B-J)	.	8a-J	.	.	.	.
.	.	(8GL	.	4b-	.	(4bb-	.	.
.	.	8F#	.	.	.	.	.	.
.	.	8G	.	4d-X)	.	8ggL	.	.
.	.	8B-J)	.	.	.	8aa-J	.	.
=86	=86	=86	=86	=86	=86	=86	=86	=86
4E] 4G]	.	4G	.	4b-	.	4bb-)	.	.
(8GG'L	.	(8G'L	.	4r	.	4r	.	.
8AA-'J)	.	8A-'J)	.	.	.	.	.	.
4BB-X	.	4B-'	.	4r	.	4r	.	.
4r	.	4r	.	(8G'L	.	(8g'L	.	.
.	.	.	.	8A-'J)	.	8a-'J)	.	.
=87	=87	=87	=87	=87	=87	=87	=87	=87
4r	.	4r	.	4B-	.	4b-	.	.
(8G'L	.	(8g'L	.	4r	.	4r	.	.
8A-'J)	.	8a-'J)	.	.	.	.	.	.
4B-	.	4b-	.	4r	.	4r	.	.
4r	.	4r	.	(8g'L	.	(8gg'L	.	.
.	.	.	.	8a-'J)	.	8aa-'J)	.	.
=88	=88	=88	=88	=88	=88	=88	=88	=88
!	!	!LO:TX:a:i:t=cresc.	!	!LO:TX:a:i:t=cresc.	!	!LO:TX:a:i:t=cresc.	!	!
2r	.	1D-X 1d-X	.	4b-	.	4bb-	.	.
.	.	.	.	(8g'L	.	(8gg'L	.	.
.	.	.	.	8a-'J)	.	8aa-'J)	.	.
*clefC4	*	*	*	*	*	*	*	*
!LO:TX:b:i:t=cresc.	!	!	!	!	!	!	!	!
[2g	.	.	.	4b-	.	4bb-	.	.
.	.	.	.	(8g'L	.	(8gg'L	.	.
.	.	.	.	8a-'J)	.	8aa-'J)	.	.
=89	=89	=89	=89	=89	=89	=89	=89	=89
4g]	.	16CLL 16c	.	4b-	.	4bb-	.	II.V7
.	.	16C 16c	.	.	.	.	.	.
.	.	16C 16c	.	.	.	.	.	.
.	.	16CJJ 16c	.	.	.	.	.	.
8enL	.	16CLL 16c	.	8g'L	.	8gg'L	.	.
.	.	16C 16c	.	.	.	.	.	.
8fJ	.	16C 16c	.	8an'J	.	8aan'J	.	.
.	.	16CJJ 16c	.	.	.	.	.	.
4g	.	16CLL 16c	.	8b-'L	.	8bb-'L	.	.
.	.	16C 16c	.	.	.	.	.	.
.	.	16C 16c	.	8cc'	.	8een'	.	.
.	.	16CJJ 16c	.	.	.	.	.	.
4B-	.	16CLL 16c	.	8ddn'	.	8ff'	.	.
.	.	16C 16c	.	.	.	.	.	.
.	.	16C 16c	.	8een'J	.	8gg'J	.	.
.	.	16CJJ 16c	.	.	.	.	.	.
=90	=90	=90	=90	=90	=90	=90	=90	=90
2An	.	16CLL 16c	.	8ff'L	.	8aan'L	.	I64
.	.	16C 16c	.	.	.	.	.	.
.	.	16C 16c	.	8g'	.	8bbn'	.	.
.	.	16CJJ 16c	.	.	.	.	.	.
.	.	16CLL 16c	.	8an'	.	8ccc'	.	.
.	.	16C 16c	.	.	.	.	.	.
.	.	16C 16c	.	8bn'J	.	8dddn'J	.	.
.	.	16CJJ 16c	.	.	.	.	.	.
4.f	.	16CLL 16c	.	8cc'L	.	8eeen'L	.	.
.	.	16C 16c	.	.	.	.	.	.
.	.	16C 16c	.	8dd'	.	8fff'	.	.
.	.	16CJJ 16c	.	.	.	.	.	.
.	.	16CLL 16c	.	8een'	.	8gg'	.	.
.	.	16C 16c	.	.	.	.	.	.
8en	.	16C 16c	.	8ff'J	.	8aa'J	.	.
.	.	16CJJ 16c	.	.	.	.	.	.
=91	=91	=91	=91	=91	=91	=91	=91	=91
4.d	.	16CLL 16c	.	8gg'L	.	8bbn'L	.	V43/V
.	.	16C 16c	.	.	.	.	.	.
.	.	16C 16c	.	8aan'	.	8ccc'	.	.
.	.	16CJJ 16c	.	.	.	.	.	.
.	.	16CLL 16c	.	8bn'	.	8ddd'	.	.
.	.	16C 16c	.	.	.	.	.	.
8an	.	16C 16c	.	8cc'J	.	8eeen'J	.	.
.	.	16CJJ 16c	.	.	.	.	.	.
4.g	.	16CLL 16c	.	8dd'L	.	8fff'L	.	V
.	.	16C 16c	.	.	.	.	.	.
.	.	16C 16c	.	8een'	.	8ggg'	.	.
.	.	16CJJ 16c	.	.	.	.	.	.
.	.	16CLL 16c	.	8ff'	.	8aaan'	.	.
.	.	16C 16c	.	.	.	.	.	.
8f	.	16C 16c	.	8gg'J	.	8bbbn'J	.	.
.	.	16CJJ 16c	.	.	.	.	.	.
=92	=92	=92	=92	=92	=92	=92	=92	=92
(4d#X	.	16CLL 16c	.	8aan'L	.	4cccc	.	V(#9)
.	.	16C 16c	.	.	.	.	.	.
.	.	16C 16c	.	8bbn'	.	.	.	.
.	.	16CJJ 16c	.	.	.	.	.	.
4en)	.	16CLL 16c	.	8ccc'	.	4r	.	V
.	.	16C 16c	.	.	.	.	.	.
.	.	16C 16c	.	8ddd'J	.	.	.	.
.	.	16CJJ 16c	.	.	.	.	.	.
*clefF4	*	*	*	*	*	*	*	*
[2CC	ff	16EnLL	.	8eeen'L	ff	[2gg	ff	V7
.	.	16E	.	.	.	.	.	.
.	.	16E	.	8fff'	.	.	.	.
.	.	16EJJ	.	.	.	.	.	.
.	.	16ELL	.	8ggg'	.	.	.	.
.	.	16E	.	.	.	.	.	.
.	.	16E	.	16b-XL	ff	.	.	.
.	.	16EJJ	.	16b-JJ	.	.	.	.
=93	=93	=93	=93	=93	=93	=93	=93	=93
(4CC]	.	16EnLL	.	16b-LL	.	(4gg]	.	.
.	.	16E	.	16B-	.	.	.	.
.	.	16E	.	16B-	.	.	.	.
.	.	16EJJ	.	16B-JJ	.	.	.	.
!	!	!	!LO:DY:a	!	!	!	!	!
4DD-X	sf	16FLL	sf sf	16B-LL	.	8eenL	sf	iv6
.	.	16F	.	16B-	.	.	.	.
.	.	16F	.	16B-	.	8ffJ	.	.
.	.	16FJJ	.	16B-JJ	.	.	.	.
4CC	.	16ELL	.	16B-LL	.	4gg	.	V
.	.	16E	.	16b-	.	.	.	.
.	.	16E	.	16g	.	.	.	.
.	.	16EJJ	.	16gJJ	.	.	.	.
4EEn)	sf	16cLL	.	16gLL	sf	4b-X)	sf	V65
.	.	16c	.	16g	sf	.	.	.
.	.	16c	.	16g	.	.	.	.
.	.	16cJJ	.	16gJJ	.	.	.	.
=94	=94	=94	=94	=94	=94	=94	=94	=94
(4FF	.	16cLL	.	16gLL	.	2an	.	vi
.	.	16c	.	16g	.	.	.	.
.	.	16c	.	16g	.	.	.	.
.	.	16cJJ	.	16gJJ	.	.	.	.
4DDn	sf	16dnLL	sf	16fLL	sf	.	.	.
.	.	16d	.	16f	.	.	.	.
.	.	16d	.	16f	.	.	.	.
.	.	16dJJ	.	16fJJ	.	.	.	.
4GG	.	16dLL	.	16bnLL	.	4.ff	sf	V/V
.	.	16d	.	16b	.	.	.	.
.	.	16d	.	16b	.	.	.	.
.	.	16dJJ	.	16bJJ	.	.	.	.
4AAn)	sf	16cLL	sf	16ccLL	sf	.	.	.
.	.	16c	.	16cc	.	.	.	.
.	.	16c	.	16cc	.	8een	.	vi/V
.	.	16cJJ	.	16ccJJ	.	.	.	.
=95	=95	=95	=95	=95	=95	=95	=95	=95
(4GG	.	16cLL	.	16ddLL	.	4.dd	sf	V2/V
.	.	16c	.	16d	.	.	.	.
.	.	16c	.	16d	.	.	.	.
.	.	16cJJ	.	16dJJ	.	.	.	.
4F	sf	16cLL	sf	16dLL	sf	.	.	.
.	.	16c	.	16d	.	.	.	.
.	.	16c	.	16d	.	8aan	.	.
.	.	16cJJ	.	16dJJ	.	.	.	.
4G	.	16BnLL	.	16dLL	.	4.gg	sf	V7/V
.	.	16d	.	16f	.	.	.	.
.	.	16d	.	16f	.	.	.	.
.	.	16dJJ	.	16fJJ	.	.	.	.
4GG)	sf	16dLL	sf	16fLL	sf	.	.	.
.	.	16d	.	16f	.	.	.	.
.	.	16d	.	16f	.	8bbn	.	.
.	.	16dJJ	.	16fJJ	.	.	.	.
=96	=96	=96	=96	=96	=96	=96	=96	=96
!	!	!LO:TX:a:i:t=sempre	!	!LO:TX:a:i:t=sempre	!	!LO:TX:a:i:t=sempre	!	!
4CC	.	16CLL	.	16enLL	.	[1ccc	f	V43
.	.	16C	.	16e	.	.	.	.
.	.	16En	.	16c	.	.	.	.
.	.	16EJJ	.	16cJJ	.	.	.	.
8r	.	16CLL	f	16eLL	f	.	.	.
.	.	16C	.	16e	.	.	.	.
*clefC4	*	*	*	*	*	*	*	*
!LO:TX:b:i:t=sempre	!	!	!	!	!	!	!	!
8c	.	16E	.	16c	.	.	.	.
.	.	16EJJ	.	16cJJ	.	.	.	.
4.Bn	.	16DLL	.	16fLL	.	.	.	.
.	.	16D	.	16f	.	.	.	.
.	.	16F	.	16c	.	.	.	.
.	.	16FJJ	.	16cJJ	.	.	.	.
.	.	16DLL	.	16fLL	.	.	.	.
.	.	16D	.	16f	.	.	.	.
8An	f	16F	.	16c	.	.	.	.
.	.	16FJJ	.	16cJJ	.	.	.	.
=97	=97	=97	=97	=97	=97	=97	=97	=97
4.G	.	16EnLL	.	16gLL	.	4.ccc]	.	I6
.	.	16E	.	16g	.	.	.	.
.	.	16G	.	16c	.	.	.	.
.	.	16GJJ	.	16cJJ	.	.	.	.
.	.	16ELL	.	16gLL	.	.	.	.
.	.	16E	.	16g	.	.	.	.
8en	.	16G	.	16c	.	(16ccLL	.	.
.	.	16GJJ	.	16cJJ	.	16bnJJ)	.	.
4.f	.	16FLL	.	16anLL	.	(12anL	.	IV
.	.	16F	.	16a	.	.	.	.
.	.	.	.	.	.	12g	.	.
.	.	16d	.	16c	.	.	.	.
.	.	.	.	.	.	12fJ	.	.
.	.	16dJJ	.	16cJJ	.	.	.	.
.	.	16FLL	.	16aLL	.	12enL	.	.
.	.	16F	.	16a	.	.	.	.
.	.	.	.	.	.	12d	.	.
8d	.	16d	.	16c	.	.	.	.
.	.	.	.	.	.	12cJ)	.	.
.	.	16dJJ	.	16cJJ	.	.	.	.
=98	=98	=98	=98	=98	=98	=98	=98	=98
[1g	.	16dLL	.	16fLL	.	4.Bn	.	V7
.	.	16d	.	16f	.	.	.	.
.	.	16G	.	16Bn	.	.	.	.
.	.	16GJJ	.	16BJJ	.	.	.	.
.	.	16dLL	.	16fLL	.	.	.	.
.	.	16d	.	16f	.	.	.	.
.	.	16G	.	16B	.	8een	.	.
.	.	16GJJ	.	16BJJ	.	.	.	.
.	.	16dLL	.	16fLL	.	4.ff	.	.
.	.	16d	.	16f	.	.	.	.
.	.	16G	.	16B	.	.	.	.
.	.	16GJJ	.	16BJJ	.	.	.	.
.	.	16dLL	.	16fLL	.	.	.	.
.	.	16d	.	16f	.	.	.	.
.	.	16G	.	16B	.	8dd	.	.
.	.	16GJJ	.	16BJJ	.	.	.	.
=99	=99	=99	=99	=99	=99	=99	=99	=99
1g]	.	16dLL	.	16fLL	.	4.bn	.	.
.	.	16d	.	16f	.	.	.	.
.	.	16Bn	.	16d	.	.	.	.
.	.	16BJJ	.	16dJJ	.	.	.	.
.	.	16dLL	.	16fLL	.	.	.	.
.	.	16d	.	16f	.	.	.	.
.	.	16B	.	16bn	.	8ddd	.	.
.	.	16BJJ	.	16bJJ	.	.	.	.
.	.	16AnLL	.	16ccLL	.	4.ff	.	.
.	.	16A	.	16cc	.	.	.	.
.	.	16G	.	16b	.	.	.	.
.	.	16GJJ	.	16bJJ	.	.	.	.
.	.	16ALL	.	16ccLL	.	.	.	.
.	.	16A	.	16cc	.	.	.	.
.	.	16B	.	16dd	.	8gg	.	.
.	.	16BJJ	.	16ddJJ	.	.	.	.
=100	=100	=100	=100	=100	=100	=100	=100	=100
[1c	.	16CLL	.	8eenL	.	4een	.	I[I
.	.	16C	.	.	.	.	.	.
.	.	16En	.	16cL	.	.	.	.
.	.	16EJJ	.	16cJJ	.	.	.	.
.	.	16CLL	.	16enLL	.	8r	.	.
.	.	16C	.	16e	.	.	.	.
.	.	16E	.	16c	.	8c	.	.
.	.	16EJJ	.	16cJJ	.	.	.	.
.	.	16DLL	.	16fLL	.	4.Bn	.	viio6
.	.	16D	.	16f	.	.	.	.
.	.	16F	.	16c	.	.	.	.
.	.	16FJJ	.	16cJJ	.	.	.	.
.	.	16DLL	.	16fLL	.	.	.	.
.	.	16D	.	16f	.	.	.	.
.	.	16F	.	16c	.	8An	.	.
.	.	16FJJ	.	16cJJ	.	.	.	.
=101	=101	=101	=101	=101	=101	=101	=101	=101
4.c]	.	16EnLL	.	16gLL	.	4.G	.	I6]
.	.	16E	.	16g	.	.	.	.
.	.	16G	.	16c	.	.	.	.
.	.	16GJJ	.	16cJJ	.	.	.	.
.	.	16CLL	.	16gLL	.	.	.	.
.	.	16C	.	16g	.	.	.	.
(16CLL	.	16c	.	16G	.	8en	.	.
16BBnJJ)	.	16cJJ	.	16GJJ	.	.	.	.
(12AAnL	.	16FLL	.	16anLL	.	4.f	.	IV6
.	.	16F	.	16a	.	.	.	.
12GG	.	.	.	.	.	.	.	.
.	.	16d	.	16c	.	.	.	.
12FFJ	.	.	.	.	.	.	.	.
.	.	16dJJ	.	16cJJ	.	.	.	.
12EEnL	.	16FLL	.	16aLL	.	.	.	.
.	.	16F	.	16a	.	.	.	.
12DD	.	.	.	.	.	.	.	.
.	.	16d	.	16c	.	8d	.	.
12CCJ)	.	.	.	.	.	.	.	.
.	.	16dJJ	.	16cJJ	.	.	.	.
=102	=102	=102	=102	=102	=102	=102	=102	=102
4.BBn	.	16dLL	.	16fLL	.	[1g	.	V2
.	.	16d	.	16f	.	.	.	.
.	.	16Bn	.	16d	.	.	.	.
.	.	16BJJ	.	16dJJ	.	.	.	.
.	.	16dLL	.	16fLL	.	.	.	.
.	.	16d	.	16f	.	.	.	.
8En	.	16B	.	16d	.	.	.	.
.	.	16BJJ	.	16dJJ	.	.	.	.
4.F	.	16BLL	.	16dLL	.	.	.	.
.	.	16B	.	16d	.	.	.	.
.	.	16G	.	16Bn	.	.	.	.
.	.	16GJJ	.	16BJJ	.	.	.	.
.	.	16BLL	.	16dLL	.	.	.	.
.	.	16B	.	16d	.	.	.	.
8D	.	16G	.	16B	.	.	.	.
.	.	16GJJ	.	16BJJ	.	.	.	.
=103	=103	=103	=103	=103	=103	=103	=103	=103
4.BBn	.	16dLL	.	16fLL	.	4.g]	.	V65
.	.	16d	.	16f	.	.	.	.
.	.	16Bn	.	16d	.	.	.	.
.	.	16BJJ	.	16dJJ	.	.	.	.
.	.	16dLL	.	16fLL	.	.	.	.
.	.	16d	.	16f	.	.	.	.
8d	.	16B	.	16d	.	8g	.	.
.	.	16BJJ	.	16dJJ	.	.	.	.
4.F	.	16BLL	.	16dLL	.	4.an	.	V2
.	.	16B	.	16d	.	.	.	.
.	.	16G	.	16Bn	.	.	.	.
.	.	16GJJ	.	16BJJ	.	.	.	.
.	.	16BLL	.	16dLL	.	.	.	.
.	.	16B	.	16d	.	.	.	.
8G	.	16G	.	16B	.	8bn	.	.
.	.	16GJJ	.	16BJJ	.	.	.	.
=104	=104	=104	=104	=104	=104	=104	=104	=104
4En	.	16cLL	.	16enLL	.	4cc	.	I6
.	.	16c	.	16e	.	.	.	.
.	.	16G	.	16c	.	.	.	.
.	.	16GJJ	.	16cJJ	.	.	.	.
8r	.	16cLL	.	16fLL	.	8r	.	.
.	.	16c	.	16f	.	.	.	.
8GG	.	16G	.	16d	.	8ddd	.	.
.	.	16GJJ	.	16dJJ	.	.	.	.
4.AAn	.	16dLL	.	16fLL	.	4.ff	.	ii64
.	.	16d	.	16f	.	.	.	.
.	.	16G	.	16d	.	.	.	.
.	.	16GJJ	.	16dJJ	.	.	.	.
.	.	16dLL	.	16fLL	.	.	.	.
.	.	16d	.	16f	.	.	.	.
8BBn	.	16G	.	16d	.	8gg	.	V65
.	.	16GJJ	.	16dJJ	.	.	.	.
=105	=105	=105	=105	=105	=105	=105	=105	=105
4C	.	16cLL	.	16enLL	.	4.een	.	V
.	.	16c	.	16e	.	.	.	.
.	.	16G	.	16c	.	.	.	.
.	.	16GJJ	.	16cJJ	.	.	.	.
8r	.	16BnLL	.	16dLL	.	.	.	.
.	.	16B	.	16d	.	.	.	.
8d	.	16G	.	16Bn	.	8g	.	.
.	.	16GJJ	.	16BJJ	.	.	.	.
4.F	.	16BLL	.	16dLL	.	4.an	.	V2
.	.	16B	.	16d	.	.	.	.
.	.	16G	.	16B	.	.	.	.
.	.	16GJJ	.	16BJJ	.	.	.	.
.	.	16BLL	.	16dLL	.	.	.	.
.	.	16B	.	16d	.	.	.	.
8G	.	16G	.	16B	.	8bn	.	V
.	.	16GJJ	.	16BJJ	.	.	.	.
=106	=106	=106	=106	=106	=106	=106	=106	=106
4En	.	16cLL	.	16enLL	.	4cc	.	I6
.	.	16c	.	16e	.	.	.	.
.	.	16G	.	16c	.	.	.	.
.	.	16GJJ	.	16cJJ	.	.	.	.
8r	.	16dLL	.	16fLL	.	8r	.	.
.	.	16d	.	16f	.	.	.	.
8GG	.	16G	.	16d	.	8ddd	.	V7
.	.	16GJJ	.	16dJJ	.	.	.	.
4.AAn	.	16dLL	.	16fLL	.	4.ff	.	ii64
.	.	16d	.	16f	.	.	.	.
.	.	16G	.	16d	.	.	.	.
.	.	16GJJ	.	16dJJ	.	.	.	.
.	.	16dLL	.	16fLL	.	.	.	.
.	.	16d	.	16f	.	.	.	.
8BBn	.	16G	.	16d	.	8gg	.	V65
.	.	16GJJ	.	16dJJ	.	.	.	.
=107	=107	=107	=107	=107	=107	=107	=107	=107
4.C	.	16cLL	.	16enLL	.	4.een	.	I
.	.	16c	.	16e	.	.	.	.
.	.	16C	.	16c	.	.	.	.
.	.	16CJJ	.	16cJJ	.	.	.	.
.	.	16EnLL	.	16eLL	.	.	.	.
.	.	16E	.	16e	.	.	.	.
8BB-X	.	16C	.	16c	.	8cc	.	V2/IV
.	.	16CJJ	.	16cJJ	.	.	.	.
4.AAn	.	16ELL	.	16fLL	.	4.ff	.	IV6
.	.	16E	.	16f	.	.	.	.
.	.	16C	.	16c	.	.	.	.
.	.	16CJJ	.	16cJJ	.	.	.	.
.	.	16ELL	.	16fLL	.	.	.	.
.	.	16E	.	16f	.	.	.	.
8FF	.	16C	.	16c	.	8aan	.	IV
.	.	16CJJ	.	16cJJ	.	.	.	.
=108	=108	=108	=108	=108	=108	=108	=108	=108
4.EEn	.	16GLL	.	16gLL	.	4.ccc	.	I6
.	.	16G	.	16g	.	.	.	.
.	.	16C	.	16c	.	.	.	.
.	.	16CJJ	.	16cJJ	.	.	.	.
.	.	16GLL	.	16gLL	.	.	.	.
.	.	16G	.	16g	.	.	.	.
8CC	.	16C	.	16G	.	8een	.	I
.	.	16CJJ	.	16GJJ	.	.	.	.
4.GG	.	16DLL	.	16BnLL	.	4.gg	.	V7
.	.	16D	.	16B	.	.	.	.
.	.	16F	.	16d	.	.	.	.
.	.	16FJJ	.	16dJJ	.	.	.	.
.	.	16DLL	.	16BLL	.	.	.	.
.	.	16D	.	16B	.	.	.	.
8GG	.	16F	.	16d	.	8bn	.	.
.	.	16FJJ	.	16dJJ	.	.	.	.
=109	=109	=109	=109	=109	=109	=109	=109	=109
4CC	.	16EnLL	.	4c	.	4.cc	.	I\\
.	.	16E	.	.	.	.	.	.
.	.	16C	.	.	.	.	.	.
.	.	16CJJ	.	.	.	.	.	.
4r	.	16ELL	.	4r	.	.	.	.
.	.	16E	.	.	.	.	.	.
.	.	16C	.	.	.	8c	.	.
.	.	16CJJ	.	.	.	.	.	.
4.C	.	2r	.	16cLL	.	2r	.	.
.	.	.	.	16c	.	.	.	.
.	.	.	.	16G	.	.	.	.
.	.	.	.	16GJJ	.	.	.	.
.	.	.	.	16cLL	.	.	.	.
.	.	.	.	16c	.	.	.	.
8CC	.	.	.	16G	.	.	.	.
.	.	.	.	16GJJ	.	.	.	.
=110	=110	=110	=110	=110	=110	=110	=110	=110
2r	.	16EnLL	.	2r	.	2een	.	I6
.	.	16E	.	.	.	.	.	.
.	.	16C	.	.	.	.	.	.
.	.	16CJJ	.	.	.	.	.	.
.	.	16ELL	.	.	.	.	.	.
.	.	16E	.	.	.	.	.	.
.	.	16C	.	.	.	.	.	.
.	.	16CJJ	.	.	.	.	.	.
4.En	.	2r	.	16enLL	.	2r	.	.
.	.	.	.	16e	.	.	.	.
.	.	.	.	16c	.	.	.	.
.	.	.	.	16cJJ	.	.	.	.
.	.	.	.	16eLL	.	.	.	.
.	.	.	.	16e	.	.	.	.
8EEn	.	.	.	16c	.	.	.	.
.	.	.	.	16cJJ	.	.	.	.
=111	=111	=111	=111	=111	=111	=111	=111	=111
2r	.	16GLL	.	2r	.	4.gg	.	I64
.	.	16G	.	.	.	.	.	.
.	.	16En	.	.	.	.	.	.
.	.	16EJJ	.	.	.	.	.	.
.	.	16GLL	.	.	.	.	.	.
.	.	16G	.	.	.	.	.	.
.	.	16E	.	.	.	8g	.	.
.	.	16EJJ	.	.	.	.	.	.
4.G	.	2r	.	16gLL	.	2r	.	.
.	.	.	.	16g	.	.	.	.
.	.	.	.	16en	.	.	.	.
.	.	.	.	16eJJ	.	.	.	.
.	.	.	.	16gLL	.	.	.	.
.	.	.	.	16g	.	.	.	.
8GG	.	.	.	16e	.	.	.	.
.	.	.	.	16eJJ	.	.	.	.
=112	=112	=112	=112	=112	=112	=112	=112	=112
!	!	!LO:TX:b:i:t=dim.	!	!	!	!LO:TX:b:i:t=dim.	!	!
2r	.	16B-LL	.	2r	.	4.ccc	.	V7/IV
.	.	16B-	.	.	.	.	.	.
.	.	16G	.	.	.	.	.	.
.	.	16GJJ	.	.	.	.	.	.
.	.	16B-LL	.	.	.	.	.	.
.	.	16B-	.	.	.	.	.	.
.	.	16G	.	.	.	8cc	.	.
.	.	16GJJ	.	.	.	.	.	.
!LO:TX:b:i:t=dim.	!	!	!	!LO:TX:b:i:t=dim.	!	!	!	!
4.c	.	2r	.	16b-LL	.	2r	.	.
.	.	.	.	16b-	.	.	.	.
.	.	.	.	16g	.	.	.	.
.	.	.	.	16gJJ	.	.	.	.
.	.	.	.	16b-LL	.	.	.	.
.	.	.	.	16b-	.	.	.	.
8C	.	.	.	16g	.	.	.	.
.	.	.	.	16gJJ	.	.	.	.
=113	=113	=113	=113	=113	=113	=113	=113	=113
2r	.	16A-LL	.	2r	.	4.cc	.	iv64
.	.	16A-	.	.	.	.	.	.
.	.	16F	.	.	.	.	.	.
.	.	16FJJ	.	.	.	.	.	.
.	.	16A-LL	.	.	.	.	.	.
.	.	16A-	.	.	.	.	.	.
.	.	16F	.	.	.	8c	.	.
.	.	16FJJ	.	.	.	.	.	.
4.C	.	2r	.	16a-LL	.	2r	.	.
.	.	.	.	16a-	.	.	.	.
.	.	.	.	16f	.	.	.	.
.	.	.	.	16fJJ	.	.	.	.
.	.	.	.	16a-LL	.	.	.	.
.	.	.	.	16a-	.	.	.	.
8CC	.	.	.	16f	.	.	.	.
.	.	.	.	16fJJ	.	.	.	.
=114	=114	=114	=114	=114	=114	=114	=114	=114
2r	.	16A-LL	.	2r	.	4.cc-X	.	viio7/biii
.	.	16A-	.	.	.	.	.	.
.	.	16F	.	.	.	.	.	.
.	.	16FJJ	.	.	.	.	.	.
.	.	16A-LL	.	.	.	.	.	.
.	.	16A-	.	.	.	.	.	.
.	.	16F	.	.	.	8c-X	.	.
.	.	16FJJ	.	.	.	.	.	.
4.D	.	2r	.	16a-LL	.	2r	.	.
.	.	.	.	16a-	.	.	.	.
.	.	.	.	16f	.	.	.	.
.	.	.	.	16fJJ	.	.	.	.
.	.	.	.	16a-LL	.	.	.	.
.	.	.	.	16a-	.	.	.	.
8DD	.	.	.	16f	.	.	.	.
.	.	.	.	16fJJ	.	.	.	.
=115	=115	=115	=115	=115	=115	=115	=115	=115
2r	.	16A-LL	p	2r	.	4.b-	p	V65/biii
.	.	16A-	.	.	.	.	.	.
.	.	16F	.	.	.	.	.	.
.	.	16FJJ	.	.	.	.	.	.
.	.	16A-LL	p	.	.	.	.	.
.	.	16A-	.	.	.	.	.	.
.	.	16F	.	.	.	8B-	.	.
.	.	16FJJ	.	.	.	.	.	.
4.D	p	2r	.	16a-LL	p	2r	.	.
.	.	.	.	16a-	.	.	.	.
.	.	.	.	16f	.	.	.	.
.	.	.	.	16fJJ	.	.	.	.
.	.	.	.	16a-LL	.	.	.	.
.	.	.	.	16a-	.	.	.	.
8DD	.	.	.	16f	.	.	.	.
.	.	.	.	16fJJ	.	.	.	.
=116	=116	=116	=116	=116	=116	=116	=116	=116
2r	.	16G-XLL	.	2r	.	4.b-	.	.biii
.	.	16G-	.	.	.	.	.	.
.	.	16E-	.	.	.	.	.	.
.	.	16E-JJ	.	.	.	.	.	.
.	.	16G-LL	.	.	.	.	.	.
.	.	16G-	.	.	.	.	.	.
.	.	16E-	.	.	.	8B-	.	.
.	.	16E-JJ	.	.	.	.	.	.
4.E-	.	2r	.	16g-XLL	.	2r	.	.
.	.	.	.	16g-	.	.	.	.
.	.	.	.	16e-	.	.	.	.
.	.	.	.	16e-JJ	.	.	.	.
.	.	.	.	16g-LL	.	.	.	.
.	.	.	.	16g-	.	.	.	.
8EE-	.	.	.	16e-	.	.	.	.
.	.	.	.	16e-JJ	.	.	.	.
=117	=117	=117	=117	=117	=117	=117	=117	=117
2r	.	16A-LL	.	2r	.	4.b-	.	V43/biii
.	.	16A-	.	.	.	.	.	.
.	.	16F	.	.	.	.	.	.
.	.	16FJJ	.	.	.	.	.	.
.	.	16A-LL	.	.	.	.	.	.
.	.	16A-	.	.	.	.	.	.
.	.	16F	.	.	.	8B-	.	.
.	.	16FJJ	.	.	.	.	.	.
4.F	.	2r	.	16dLL	.	2r	.	.
.	.	.	.	16d	.	.	.	.
.	.	.	.	16B-	.	.	.	.
.	.	.	.	16B-JJ	.	.	.	.
.	.	.	.	16dLL	.	.	.	.
.	.	.	.	16d	.	.	.	.
8FF	.	.	.	16B-	.	.	.	.
.	.	.	.	16B-JJ	.	.	.	.
=118	=118	=118	=118	=118	=118	=118	=118	=118
2r	.	16G-XLL	.	2r	.	4.b-	.	.biii6
.	.	16G-	.	.	.	.	.	.
.	.	16E-	.	.	.	.	.	.
.	.	16E-JJ	.	.	.	.	.	.
.	.	16G-LL	.	.	.	.	.	.
.	.	16G-	.	.	.	.	.	.
.	.	16E-	.	.	.	8B-	.	.
.	.	16E-JJ	.	.	.	.	.	.
4.G-X	.	2r	.	16e-LL	.	2r	.	.
.	.	.	.	16e-	.	.	.	.
.	.	.	.	16B-	.	.	.	.
.	.	.	.	16B-JJ	.	.	.	.
.	.	.	.	16e-LL	.	.	.	.
.	.	.	.	16e-	.	.	.	.
8GG-X	.	.	.	16B-	.	.	.	.
.	.	.	.	16B-JJ	.	.	.	.
=119	=119	=119	=119	=119	=119	=119	=119	=119
2r	.	(16AnLL	p	2r	.	4.b-	p	V/biii
.	.	16B-	.	.	.	.	.	.
.	.	16A	.	.	.	.	.	.
.	.	16B-JJ	.	.	.	.	.	.
.	.	16ALL	.	.	.	.	.	.
.	.	16B-	.	.	.	.	.	.
.	.	16A	.	.	.	8f	.	.
.	.	16B-JJ)	.	.	.	.	.	.
!	!	!	!LO:DY:a	!	!	!	!	!
4.B-	p	2r	p	(16cLL	.	2r	.	.
.	.	.	.	16B-	.	.	.	.
.	.	.	.	16c	.	.	.	.
.	.	.	.	16B-JJ	.	.	.	.
.	.	.	.	16cLL	.	.	.	.
.	.	.	.	16B-	.	.	.	.
8F	.	.	.	16c	.	.	.	.
.	.	.	.	16B-JJ)	.	.	.	.
=120	=120	=120	=120	=120	=120	=120	=120	=120
2r	.	(16AnLL	.	2r	.	4.g-X	.	.biii
.	.	16B-	.	.	.	.	.	.
.	.	16A	.	.	.	.	.	.
.	.	16B-JJ	.	.	.	.	.	.
.	.	16ALL	.	.	.	.	.	.
.	.	16B-	.	.	.	.	.	.
.	.	16A	.	.	.	8e-	.	.
.	.	16B-JJ)	.	.	.	.	.	.
4.G-X	.	2r	.	(16c-XLL	.	2r	.	.
.	.	.	.	16B-	.	.	.	.
.	.	.	.	16c-	.	.	.	.
.	.	.	.	16B-JJ	.	.	.	.
.	.	.	.	16c-LL	.	.	.	.
.	.	.	.	16B-	.	.	.	.
8E-	.	.	.	16c-	.	.	.	.
.	.	.	.	16B-JJ)	.	.	.	.
=121	=121	=121	=121	=121	=121	=121	=121	=121
2r	.	((16AnLL	.	2r	.	4.d	.	V/biii
.	.	16B-	.	.	.	.	.	.
.	.	16A	.	.	.	.	.	.
.	.	16B-JJ	.	.	.	.	.	.
.	.	16ALL	.	.	.	.	.	.
.	.	16B-	.	.	.	.	.	.
.	.	16A	.	.	.	8B-	.	.
.	.	16B-JJ))	.	.	.	.	.	.
4.D	.	2r	.	(16cLL	.	2r	.	.
.	.	.	.	16B-	.	.	.	.
.	.	.	.	16c	.	.	.	.
.	.	.	.	16B-JJ	.	.	.	.
.	.	.	.	16cLL	.	.	.	.
.	.	.	.	16B-	.	.	.	.
8BB-	.	.	.	16c	.	.	.	.
.	.	.	.	16B-JJ)	.	.	.	.
=122	=122	=122	=122	=122	=122	=122	=122	=122
2r	.	(16FLL	.	2r	.	4.e-	.	viio7/bVII
.	.	16G-X	.	.	.	.	.	.
.	.	16F	.	.	.	.	.	.
.	.	16G-JJ	.	.	.	.	.	.
.	.	16FLL	.	.	.	.	.	.
.	.	16G-	.	.	.	.	.	.
.	.	16F	.	.	.	8An	.	.
.	.	16G-JJ)	.	.	.	.	.	.
4.E-	.	2r	.	(16BnLL	.	2r	.	.
.	.	.	.	16c	.	.	.	.
.	.	.	.	16B	.	.	.	.
.	.	.	.	16cJJ	.	.	.	.
.	.	.	.	16BLL	.	.	.	.
.	.	.	.	16c	.	.	.	.
8AAn	.	.	.	16B	.	.	.	.
.	.	.	.	16cJJ)	.	.	.	.
=123	=123	=123	=123	=123	=123	=123	=123	=123
2r	.	(16EnLL	pp	2r	.	4.d	pp	I.V
.	.	16F	.	.	.	.	.	.
.	.	16E	.	.	.	.	.	.
.	.	16FJJ	.	.	.	.	.	.
.	.	16ELL	.	.	.	.	.	.
.	.	16F	.	.	.	.	.	.
.	.	16E	.	.	.	8B-	.	.
.	.	16FJJ)	.	.	.	.	.	.
4.D	pp	2r	.	(16cLL	pp	2r	.	.
.	.	.	.	16B-	.	.	.	.
.	.	.	.	16c	.	.	.	.
.	.	.	.	16B-JJ	.	.	.	.
.	.	.	.	16cLL	.	.	.	.
.	.	.	.	16B-	.	.	.	.
8BB-	.	.	.	16c	.	.	.	.
.	.	.	.	16B-JJ)	.	.	.	.
=124	=124	=124	=124	=124	=124	=124	=124	=124
2r	.	((16EnLL	.	2r	.	4.d	.	.
.	.	16F	.	.	.	.	.	.
.	.	16E	.	.	.	.	.	.
.	.	16FJJ	.	.	.	.	.	.
.	.	16ELL	.	.	.	.	.	.
.	.	16F	.	.	.	.	.	.
.	.	16E	.	.	.	8B-	.	.
.	.	16FJJ))	.	.	.	.	.	.
4.D	.	2r	.	(16cLL	.	2r	.	.
.	.	.	.	16B-	.	.	.	.
.	.	.	.	16c	.	.	.	.
.	.	.	.	16B-JJ	.	.	.	.
.	.	.	.	16cLL	.	.	.	.
.	.	.	.	16B-	.	.	.	.
8BB-	.	.	.	16c	.	.	.	.
.	.	.	.	16B-JJ)	.	.	.	.
=125	=125	=125	=125	=125	=125	=125	=125	=125
2r	.	1r	.	1r	.	[1B- [1d	.	.
!LO:TX:a:t=pizz.	!	!	!	!	!	!	!	!
4BB-	.	.	.	.	.	.	.	.
4D	.	.	.	.	.	.	.	.
=126	=126	=126	=126	=126	=126	=126	=126	=126
4F	.	2r	.	1r	.	1B-_ 1d_	.	.
4B-	.	.	.	.	.	.	.	.
!	!	!LO:TX:a:t=pizz.	!	!	!	!	!	!
2r	.	4D	.	.	.	.	.	.
.	.	4F	.	.	.	.	.	.
=127	=127	=127	=127	=127	=127	=127	=127	=127
1r	.	4B-	.	2r	.	1B-_ 1d_	.	.
.	.	4d	.	.	.	.	.	.
!	!	!	!	!LO:TX:a:t=pizz.	!	!	!	!
.	.	2r	.	4f	.	.	.	.
.	.	.	.	4b-	.	.	.	.
=128	=128	=128	=128	=128	=128	=128	=128	=128
2r	.	1r	.	4dd	.	1B-] 1d]	.	.
.	.	.	.	4ff	.	.	.	.
6BB-	.	.	.	2r	.	.	.	.
6D	.	.	.	.	.	.	.	.
6F	.	.	.	.	.	.	.	.
=129	=129	=129	=129	=129	=129	=129	=129	=129
6D	.	2r	.	1r	.	[1A-X [1d	.	V65
6F	.	.	.	.	.	.	.	.
6B-	.	.	.	.	.	.	.	.
2r	.	6D	.	.	.	.	.	.
.	.	6F	.	.	.	.	.	.
.	.	6B-	.	.	.	.	.	.
=130	=130	=130	=130	=130	=130	=130	=130	=130
1r	.	6F	.	2r	.	1A-_ 1d_	.	V43
.	.	6B-	.	.	.	.	.	.
.	.	6d	.	.	.	.	.	.
.	.	2r	.	6B-	.	.	.	.
.	.	.	.	6d	.	.	.	.
.	.	.	.	6f	.	.	.	.
=131	=131	=131	=131	=131	=131	=131	=131	=131
2r	.	1r	.	6b-	.	1A-] 1d]	.	V7
.	.	.	.	6dd	.	.	.	.
.	.	.	.	6ff	.	.	.	.
8BB-L	.	.	.	2r	.	.	.	.
8D	.	.	.	.	.	.	.	.
8F	.	.	.	.	.	.	.	.
8B-J	.	.	.	.	.	.	.	.
=132	=132	=132	=132	=132	=132	=132	=132	=132
8DL	.	2r	.	1r	.	[1A- [1f	.	V65
8F	.	.	.	.	.	.	.	.
8B-	.	.	.	.	.	.	.	.
8dJ	.	.	.	.	.	.	.	.
2r	.	8DL	.	.	.	.	.	.
.	.	8F	.	.	.	.	.	.
.	.	8B-	.	.	.	.	.	.
.	.	8dJ	.	.	.	.	.	.
=133	=133	=133	=133	=133	=133	=133	=133	=133
1r	.	8FL	.	2r	.	1A-_ 1f_	.	V43
.	.	8B-	.	.	.	.	.	.
.	.	8d	.	.	.	.	.	.
.	.	8fJ	.	.	.	.	.	.
.	.	2r	.	8dL	.	.	.	.
.	.	.	.	8f	.	.	.	.
.	.	.	.	8b-	.	.	.	.
.	.	.	.	8ddJ	.	.	.	.
=134	=134	=134	=134	=134	=134	=134	=134	=134
2r	.	1r	.	8fL	.	1A-] 1f]	.	V7
.	.	.	.	8b-	.	.	.	.
.	.	.	.	8dd	.	.	.	.
.	.	.	.	8ffJ	.	.	.	.
!LO:TX:a:t=arco	!	!	!	!	!	!	!	!
12BB-L	.	.	.	2r	.	.	.	.
12D	.	.	.	.	.	.	.	.
12FJ	.	.	.	.	.	.	.	.
12B-L	.	.	.	.	.	.	.	.
12d	.	.	.	.	.	.	.	.
12fJ	.	.	.	.	.	.	.	.
=135	=135	=135	=135	=135	=135	=135	=135	=135
!	!	!LO:TX:a:t=arco	!	!	!	!	!	!
1r	.	12DL	.	2r	.	[1f [1a-	.	.
.	.	12F	.	.	.	.	.	.
.	.	12B-J	.	.	.	.	.	.
.	.	12dL	.	.	.	.	.	.
.	.	12f	.	.	.	.	.	.
.	.	12b-J	.	.	.	.	.	.
!	!	!	!	!LO:TX:a:t=arco	!	!	!	!
.	.	2r	.	12B-L	.	.	.	.
.	.	.	.	12d	.	.	.	.
.	.	.	.	12fJ	.	.	.	.
.	.	.	.	12b-L	.	.	.	.
.	.	.	.	12dd	.	.	.	.
.	.	.	.	12ffJ	.	.	.	.
=136	=136	=136	=136	=136	=136	=136	=136	=136
!LO:TX:a:i:t=cresc.	!	!	!	!	!	!LO:TX:a:i:t=cresc.	!	!
12BB-L	.	2r	.	1r	.	1f_ 1a-_	.	.
12D	.	.	.	.	.	.	.	.
12FJ	.	.	.	.	.	.	.	.
12A-L	.	.	.	.	.	.	.	.
12B-	.	.	.	.	.	.	.	.
12dJ	.	.	.	.	.	.	.	.
!	!	!LO:TX:a:i:t=cresc.	!	!	!	!	!	!
2r	.	12DL	.	.	.	.	.	.
.	.	12F	.	.	.	.	.	.
.	.	12A-J	.	.	.	.	.	.
.	.	12B-L	.	.	.	.	.	.
.	.	12d	.	.	.	.	.	.
.	.	12fJ	.	.	.	.	.	.
=137	=137	=137	=137	=137	=137	=137	=137	=137
!	!	!	!	!LO:TX:a:i:t=cresc.	!	!	!	!
2r	.	2r	.	12B-L	.	2f] 2a-]	.	.
.	.	.	.	12d	.	.	.	.
.	.	.	.	12fJ	.	.	.	.
.	.	.	.	12a-L	.	.	.	.
.	.	.	.	12b-	.	.	.	.
.	.	.	.	12ddJ	.	.	.	.
2r	.	12a-L	.	12ddL 12ff	.	12dL	.	.
.	.	12f	.	12dd 12ff	.	12f	.	.
.	.	12dJ	.	12ddJ 12ff	.	12a-J	.	.
.	.	12B-L	.	12ddL 12ff	.	12b-L	.	.
.	.	12A-	.	12dd 12ff	.	12dd	.	.
.	.	12FJ	.	12ddJ 12ff	.	12ffJ	.	.
=138	=138	=138	=138	=138	=138	=138	=138	=138
!LO:TX:b:i:t=cresc.	!	!	!	!	!	!	!	!
12fL	.	12DL	.	12ddL 12ff	.	12a-L	.	V43
12d	.	12d 12f	.	12a-	.	12b-	.	.
12B-J	.	12dJ 12f	.	12a-J	.	12ddJ	.	.
12A-L	.	12dL 12f	.	12a-L	.	12ffL	.	.
12F	.	12d 12f	.	12a-	.	12aa-	.	.
12DJ	.	12dJ 12f	.	12a-J	.	12bb-J	.	.
12BB-L	.	12dL 12f	.	12aa-L	.	12dddL	.	V7
12BB-	.	12F 12A-	.	12ff	.	12fff	.	.
12BB-J	.	12FJ 12A-	.	12ddJ	.	12aaa-J	.	.
12BB-L	.	12FL 12A-	.	12b-L	.	8aaa-L	.	.
12BB-	.	12F 12A-	.	12a-	.	.	.	.
.	.	.	.	.	.	8dJ	.	.
12BB-J	.	12FJ 12A-	.	12fJ	.	.	.	.
=139	=139	=139	=139	=139	=139	=139	=139	=139
!	!	!	!LO:DY:a	!	!LO:DY:a	!	!	!
4EE-	f	4E- 4G	f f	4G 4e-	f	4G 4e- 4ee-	.	I
4r	.	4r	.	4r	.	4r	.	.
4E-'	.	4G'	.	4B-'	.	4e-'	.	.
4E-'	.	4e-'	.	4B-'	.	4g'	.	.
=140	=140	=140	=140	=140	=140	=140	=140	=140
4D'	.	4B-'	.	4f'	.	4b-'	.	V6
4r	.	4r	.	4r	.	4r	.	.
2r	.	2r	.	8r	.	2r	.	.
.	.	.	.	(8B-L	p	.	.	.
.	.	.	.	8c	.	.	.	.
.	.	.	.	8dJ	.	.	.	.
=141	=141	=141	=141	=141	=141	=141	=141	=141
.	.	.	.	16qqf/	.	.	.	.
1r	.	1r	.	8e-L	.	2r	.	I
.	.	.	.	8d	.	.	.	.
.	.	.	.	8e-	.	.	.	.
.	.	.	.	8gJ	.	.	.	.
.	.	.	.	8fL	.	[2bb-	p	V43
.	.	.	.	8en	.	.	.	.
.	.	.	.	8f	.	.	.	.
.	.	.	.	8a-J)	.	.	.	.
=142	=142	=142	=142	=142	=142	=142	=142	=142
!LO:TX:b:i:t=dolce	!	!	!	!	!	!	!	!
(2E-	.	[1E-	p	(8gL	.	(4bb-]	.	I[I
.	.	.	.	8f	.	.	.	.
.	.	.	.	8g	.	8ggL	.	.
.	.	.	.	8b-J	.	8aa-J	.	.
2G	.	.	.	8e-XL	.	4bb-	.	I6
.	.	.	.	8d	.	.	.	.
.	.	.	.	8e-	.	4dd-X)	.	V65/IV
.	.	.	.	8b-J)	.	.	.	.
=143	=143	=143	=143	=143	=143	=143	=143	=143
2A-	.	1E-_	.	(8e-L	.	2cc	.	IV
.	.	.	.	8d	.	.	.	.
.	.	.	.	8e-	.	.	.	.
.	.	.	.	8ccJ	.	.	.	.
2c	.	.	.	8e-L	.	4.aa-	.	IV6
.	.	.	.	8d	.	.	.	.
.	.	.	.	8e-	.	.	.	.
.	.	.	.	8a-J)	.	8gg	.	.
=144	=144	=144	=144	=144	=144	=144	=144	=144
2d	.	1E-_	.	(8fL	.	4.ff	.	V65
.	.	.	.	8en	.	.	.	.
.	.	.	.	8f	.	.	.	.
.	.	.	.	8a-J	.	8ccc	.	.
2B-)	.	.	.	8dL	.	4.bb-	.	V7
.	.	.	.	8c#X	.	.	.	.
.	.	.	.	8d	.	.	.	.
.	.	.	.	8fJ)	.	8aa-	.	.
=145	=145	=145	=145	=145	=145	=145	=145	=145
4e-	.	2E-]	.	(8B-L	.	(4ff#X	.	I(#2)
.	.	.	.	8A-	.	.	.	.
4r	.	.	.	8B-	.	4gg)	.	I]
.	.	.	.	8e-XJ)	.	.	.	.
!LO:TX:b:i:t=cresc.	!	!LO:TX:b:i:t=cresc.	!	!	!	!	!	!
[2b-	.	(8GL	.	2r	.	4r	.	V7
.	.	8F#X	.	.	.	.	.	.
.	.	8G	.	.	.	4r	.	.
.	.	8B-J)	.	.	.	.	.	.
=146	=146	=146	=146	=146	=146	=146	=146	=146
!	!	!	!	!	!	!LO:TX:a:i:t=cresc.	!	!
(4b-]	.	(2E-	.	2r	.	(8ggL	.	I
.	.	.	.	.	.	8ff#X	.	.
8gL	.	.	.	.	.	8gg	.	.
8a-J	.	.	.	.	.	8bb-J	.	.
!	!	!	!	!LO:TX:a:i:t=cresc.	!	!	!	!
4b-	.	2G	.	[2e-	.	8ee-L	.	V65/IV
.	.	.	.	.	.	8gg	.	.
4d-X)	.	.	.	.	.	8aa-	.	.
.	.	.	.	.	.	8bb-J)	.	.
=147	=147	=147	=147	=147	=147	=147	=147	=147
2c	.	2A-	.	(8e-L]	.	[1ccc	.	ii7
.	.	.	.	8d	.	.	.	.
.	.	.	.	8e-	.	.	.	.
.	.	.	.	8ee-J)	.	.	.	.
4.a-	.	2Fn)	.	[2ee-	.	.	.	.
8g	.	.	.	.	.	.	.	.
=148	=148	=148	=148	=148	=148	=148	=148	=148
4.f	.	[1B-	.	2ee-]	.	2ccc]	.	ii65
*clefF4	*	*	*	*	*	*	*	*
8C	.	.	.	.	.	.	.	.
(8BB-L	.	.	.	2ff	.	(2ddd	.	V
8AA-)	.	.	.	.	.	.	.	.
8GG'	.	.	.	.	.	.	.	.
8FF'J	.	.	.	.	.	.	.	.
=149	=149	=149	=149	=149	=149	=149	=149	=149
4.EE-	.	2B-]	.	2gg	.	2eee-	.	I
8E-	.	.	.	.	.	.	.	.
(8DL	.	2d	.	[2b-	.	2fffn	.	V6
8C)	.	.	.	.	.	.	.	.
8BB-'	.	.	.	.	.	.	.	.
8AA-'J	.	.	.	.	.	.	.	.
=150	=150	=150	=150	=150	=150	=150	=150	=150
4.GG	.	2e-	.	1b-]	.	2ggg	.	I6
8G	.	.	.	.	.	.	.	.
(8FL	.	2f	.	.	.	2aaa-	.	V43
8E-)	.	.	.	.	.	.	.	.
8D'	.	.	.	.	.	.	.	.
8C'J	.	.	.	.	.	.	.	.
=151	=151	=151	=151	=151	=151	=151	=151	=151
4BB-	p	4g	p	4b-	p	4.bbb-)	p	V(64)
4r	.	(4E-	.	(4G	.	.	.	.
.	.	.	.	.	.	8ee-	.	.
2r	.	2F)	.	2A-)	.	(8ddL	.	V7
.	.	.	.	.	.	8cc)	.	.
.	.	.	.	.	.	8b-'	.	.
.	.	.	.	.	.	8a-'J	.	.
=152	=152	=152	=152	=152	=152	=152	=152	=152
!LO:TX:b:i:t=cresc.	!	!LO:TX:b:i:t=cresc.	!	!LO:TX:b:i:t=cresc.	!	!LO:TX:b:i:t=cresc.	!	!
(2EE-	.	(2G	.	(2B-	.	4.g	.	I
.	.	.	.	.	.	8gg	.	.
2FF)	.	2A-)	.	2d)	.	(8ffL	.	viio6
.	.	.	.	.	.	8ee-)	.	.
.	.	.	.	.	.	8dd'	.	.
.	.	.	.	.	.	8cc'J	.	.
=153	=153	=153	=153	=153	=153	=153	=153	=153
4GG	p	4B- 4en	p	8d-XL	p	8b-L	p	viio65/ii
.	.	.	.	8gg	.	8dd-X 8bb-	.	.
4r	.	4r	.	8gg	.	8dd- 8bb-	.	.
.	.	.	.	8ggJ	.	8dd-J 8bb-	.	.
!	!	!LO:TX:a:t=pizz.	!	!	!	!	!	!
2r	.	4G	.	8eenL 8gg	.	8dd-L 8bb-	.	.
.	.	.	.	8ee 8gg	.	8dd- 8bb-	.	.
.	.	4B-	.	8ee 8gg	.	8dd- 8bb-	.	.
.	.	.	.	8eeJ 8gg	.	8dd-J 8bb-	.	.
=154	=154	=154	=154	=154	=154	=154	=154	=154
!LO:TX:a:t=pizz.	!	!	!	!	!	!	!	!
4C	.	2r	.	8ggL	.	8ccL 8bb-	.	V7/ii
.	.	.	.	8gg	.	8cc 8bb-	.	.
4En	.	.	.	8gg	.	8cc 8bb-	.	.
.	.	.	.	8ggJ	.	8ccJ 8bb-	.	.
2r	.	4F	.	8ffL	.	8ccL 8aa-	.	ii
.	.	.	.	8ff	.	8cc 8aa-	.	.
.	.	4A-	.	8ff	.	8cc 8aa-	.	.
.	.	.	.	8ffJ	.	8ccJ 8aa-	.	.
=155	=155	=155	=155	=155	=155	=155	=155	=155
4BB-	.	2r	.	8ffL	.	8b-L 8aa-	.	V65
.	.	.	.	8ff	.	8b- 8aa-	.	.
4D	.	.	.	8ff	.	8b- 8aa-	.	V43
.	.	.	.	8ffJ	.	8b-J 8aa-	.	.
2r	.	4E-	.	8ee-XL	.	8b-L 8gg	.	I
.	.	.	.	8ee-	.	8b- 8gg	.	.
.	.	4A-	.	8ee-	.	8cc 8ff	.	ii65
.	.	.	.	8ee-J	.	8ccJ 8ff	.	.
=156	=156	=156	=156	=156	=156	=156	=156	=156
4r	.	4B-	.	8ee-L	.	8b-L 8gg	.	V(64)
.	.	.	.	8ee- 8gg	.	8b- 8bb-	.	.
4BB-	.	4r	.	8ee- 8gg	.	8b- 8bb-	.	.
.	.	.	.	8ee-J 8gg	.	8b-J 8bb-	.	.
4r	.	4B-	.	8ddL 8ff	.	8b-L 8bb-	.	V
.	.	.	.	8dd 8ff	.	8b- 8bb-	.	.
4BB-	.	4r	.	8dd 8ff	.	8b- 8bb-	.	.
.	.	.	.	8ddJ 8ff	.	8b-J 8bb-	.	V\\
=157	=157	=157	=157	=157	=157	=157	=157	=157
!LO:TX:a:t=arco	!	!LO:TX:a:t=arco	!	!	!	!	!	!
8B-L	.	8dL 8f	.	1r	.	2r	.	V
8B-	.	8d 8f	.	.	.	.	.	.
8B-	.	8d 8f	.	.	.	.	.	.
8B-J	.	8dJ 8f	.	.	.	.	.	.
!	!	!	!	!	!	!LO:TX:a:t=pizz.	!	!
8B-L	.	8dL 8f	.	.	.	4ff	.	.
8B-	.	8d 8f	.	.	.	.	.	.
8B-	.	8d 8f	.	.	.	4bb-	.	.
8B-J	.	8dJ 8f	.	.	.	.	.	.
=158	=158	=158	=158	=158	=158	=158	=158	=158
!	!	!	!	!LO:TX:a:t=pizz.	!	!	!	!
8AnL	.	8cL 8f#X	.	4dd	.	2r	.	V43/iii
8A	.	8c 8f#	.	.	.	.	.	.
8A	.	8c 8f#	.	4ff#X	.	.	.	.
8AJ	.	8cJ 8f#	.	.	.	.	.	.
8GL	.	8dL 8fn	.	2r	.	4gg	.	V7/vi
8G	.	8d 8f	.	.	.	.	.	.
8G	.	8d 8f	.	.	.	4bbn	.	.
8GJ	.	8dJ 8f	.	.	.	.	.	.
=159	=159	=159	=159	=159	=159	=159	=159	=159
8cL	.	8e-L	.	4cc	.	2r	.	vi
8e-	.	8g	.	.	.	.	.	.
8e-	.	8g	.	4gg	.	.	.	.
8e-J	.	8gJ	.	.	.	.	.	.
8e-L	.	8gL	.	2r	.	4aan	.	iv%43
8e-	.	8g	.	.	.	.	.	.
8e-	.	8g	.	.	.	4ccc	.	.
8e-J	.	8gJ	.	.	.	.	.	.
=160	=160	=160	=160	=160	=160	=160	=160	=160
8dL	.	8gL 8b-	.	4r	.	4ddd	.	V(64)/iii
8d	.	8g 8b-	.	.	.	.	.	.
8d	.	8g 8b-	.	4dd	.	4r	.	.
8dJ	.	8gJ 8b-	.	.	.	.	.	.
8DL	.	8f#XL 8an	.	4r	.	4ddd	.	V7/iii
8D	.	8f# 8a	.	.	.	.	.	.
8D	.	8f# 8a	.	4dd	.	4r	.	.
8DJ	.	8f#J 8a	.	.	.	.	.	.
=161	=161	=161	=161	=161	=161	=161	=161	=161
!	!	!	!	!	!	!LO:TX:b:t=arco	!	!
4GG	.	4g	.	2r	.	8ddL 8bb-	.	iii
.	.	.	.	.	.	8dd 8bb-	.	.
4r	.	4r	.	.	.	8dd 8bb-	.	.
.	.	.	.	.	.	8ddJ 8bb-	.	.
!	!	!LO:TX:a:t=pizz.	!	!LO:TX:a:t=arco	!	!	!	!
2r	.	4G	.	8ggL	.	8ddL 8bb-	.	.
.	.	.	.	8gg	.	8dd 8bb-	.	.
.	.	4B-	.	8gg	.	8dd 8bb-	.	.
.	.	.	.	8ggJ	.	8ddJ 8bb-	.	.
=162	=162	=162	=162	=162	=162	=162	=162	=162
!LO:TX:a:t=pizz.	!	!	!	!	!	!	!	!
4D	.	2r	.	8ccL	.	8ddL 8aan	.	V7/iii
.	.	.	.	8cc	.	8dd 8aa	.	.
4F#X	.	.	.	8cc	.	8dd 8aa	.	.
.	.	.	.	8ccJ	.	8ddJ 8gg	.	.
2r	.	4G	.	8bnL	.	8ddL 8gg	.	V7/vi
.	.	.	.	8ffn	.	8dd 8gg	.	.
.	.	4Bn	.	8ff	.	8dd 8gg	.	.
.	.	.	.	8ffJ	.	8ddJ 8gg	.	.
=163	=163	=163	=163	=163	=163	=163	=163	=163
4C	.	2r	.	8ee-L	.	8ccL 8gg	.	vi
.	.	.	.	8ee-	.	8cc 8gg	.	.
4E-	.	.	.	8ee-	.	8cc 8gg	.	.
.	.	.	.	8ee-J	.	8ccJ 8gg	.	.
2r	.	4Fn	.	8ddL	.	8ccL 8aa-X	.	vii%65
.	.	.	.	8dd	.	8cc 8aa-	.	.
.	.	4A-X	.	8dd	.	8cc 8ff	.	vii%43
.	.	.	.	8ddJ	.	8ccJ 8ff	.	.
=164	=164	=164	=164	=164	=164	=164	=164	=164
4r	.	4G	.	8ee-L	.	8ccL 8gg	.	V(64)/vi
.	.	.	.	8ee-	.	8cc 8gg	.	.
4GG	.	4r	.	8ee-	.	8cc 8gg	.	.
.	.	.	.	8ee-J	.	8ccJ 8gg	.	.
4r	.	4G	.	8ddL	.	8bnL 8gg	.	V/vi
.	.	.	.	8dd	.	8b 8gg	.	.
4GG	.	4r	.	8dd	.	8b 8gg	.	.
.	.	.	.	8ddJ	.	8bJ 8gg	.	.
=165	=165	=165	=165	=165	=165	=165	=165	=165
!LO:TX:a:t=arco	!	!LO:TX:a:t=arco	!	!	!	!	!	!
8cL	.	8e-L	.	1r	.	2r	.	vi
8c	.	8e-	.	.	.	.	.	.
8c	.	8e-	.	.	.	.	.	.
8cJ	.	8e-J	.	.	.	.	.	.
!	!	!	!	!	!	!LO:TX:a:t=pizz.	!	!
8cL	.	8d-XL 8f	.	.	.	4dd-X	.	VI2/ii
8c	.	8d- 8f	.	.	.	.	.	.
8c	.	8d- 8f	.	.	.	4ff	.	.
8cJ	.	8d-J 8f	.	.	.	.	.	.
=166	=166	=166	=166	=166	=166	=166	=166	=166
!	!	!	!	!LO:TX:a:t=pizz.	!	!	!	!
8B-L	.	8d-XL 8g	.	4gg	.	2r	.	iio/ii
8B-	.	8d- 8g	.	.	.	.	.	.
8B-	.	8d- 8g	.	4bb-	.	.	.	.
8B-J	.	8d-J 8g	.	.	.	.	.	.
8B-L	.	8cL 8g	.	2r	.	4cc	.	V2/ii
8B-	.	8c 8g	.	.	.	.	.	.
8B-	.	8c 8g	.	.	.	4een	.	.
8B-J	.	8cJ 8g	.	.	.	.	.	.
=167	=167	=167	=167	=167	=167	=167	=167	=167
8A-L	.	8cL 8f	.	2r	.	4ff	.	ii6
8A-	.	8c 8f	.	.	.	.	.	.
8A-	.	8c 8f	.	.	.	4aa-	.	.
8A-J	.	8cJ 8f	.	.	.	.	.	.
8A-L	.	8B-L 8f	.	4b-	.	4bb-	.	V2
8A-	.	8B- 8f	.	.	.	.	.	.
8A-	.	8B- 8f	.	4dd	.	4ddd	.	.
8A-J	.	8B-J 8f	.	.	.	.	.	.
=168	=168	=168	=168	=168	=168	=168	=168	=168
8GL	.	8B-L 8e-	.	4ee-	.	4eee-X	.	V.IV6
8G	.	8B- 8e-	.	.	.	.	.	.
8G-X	.	8B- 8e-	.	4ee-	.	4r	.	iv6
8G-J	.	8B-J 8e-	.	.	.	.	.	.
8FL	.	8AnL 8e-	.	4r	.	4fff	.	V7
8F	.	8A 8e-	.	.	.	.	.	.
8F	.	8c 8e-	.	4ff	.	4r	.	.
8FJ	.	8cJ 8e-	.	.	.	.	.	.
=169	=169	=169	=169	=169	=169	=169	=169	=169
!	!	!	!	!	!	!LO:TX:a:t=arco	!	!
4BB-	f	4B- 4dn	f	4r	.	4b- 4bb-	f	I
!	!	!	!	!LO:TX:a:t=arco	!	!	!	!
4r	.	4r	.	4b-' 4bb-	f	4r	.	.
2r	.	2r	.	[2cc-X	p	2r	.	I.viio2
*clefC4	*	*	*	*	*	*	*	*
=170	=170	=170	=170	=170	=170	=170	=170	=170
(2a-	p	(2dd	p	(2cc-]	.	(2ff	p	.
2an)	.	2ee-)	.	2ccn)	.	2gg-X)	.	viio65/V
=171	=171	=171	=171	=171	=171	=171	=171	=171
4BB-	f	4d 4dd	f	4ff	f	4b- 4bb-	f	V
4r	.	4B-' 4d	.	4b-' 4bb-	.	4r	.	.
2r	.	[2c-X	p	2r	.	2r	.	viio43
=172	=172	=172	=172	=172	=172	=172	=172	=172
!LO:TX:b:t=p cresc.	!	!LO:TX:b:i:t=cresc.	!	!LO:TX:b:t=p cresc.	!	!LO:TX:b:t=p cresc.	!	!
(1A-	.	(1c-]	.	(1d	.	(1f	.	.
=173	=173	=173	=173	=173	=173	=173	=173	=173
1An)	.	1cn)	.	1e-)	.	1g-X)	.	viio7/V
=174	=174	=174	=174	=174	=174	=174	=174	=174
[2A-X	sf >	[2d	sf >	[2B- [2f	sf >	[2cc	sf >	V2(9)
8A-L]	.	8dL]	.	8B-L] 8f]	.	(8ccL]	.	.
8A-'	.	8d'	.	8f'	.	8b-)	.	V2
8A-'	] p	8d'	] p	8B-'	] p	8f'	] p	.
8G'J	.	8en'J	.	8B-'J	.	8gn'J	.	#viio6/ii
=175	=175	=175	=175	=175	=175	=175	=175	=175
8FL	.	8fL	.	8A-L	.	8a-L	.	ii
8BB-	.	8F	.	8A-	.	8c	.	V7
8BB-	.	8F	.	8A-	.	8d	.	.
8BB-J	.	8FJ	.	8A-J	.	8B-J	.	.
8EE-L	.	8E-XL	.	8GL	.	8e-L	.	I
8EE-	.	8G	.	8B-	.	8B-	.	.
8BB-	.	8D	.	8B-	.	8f	.	V7
8BB-J	.	8A-J	.	8B-J	.	8B-J	.	.
=176	=176	=176	=176	=176	=176	=176	=176	=176
8E-	.	8G	.	8B-	.	8g	.	I\\
!	!	!LO:TX:a:i:t=cresc.	!	!LO:TX:a:i:t=cresc.	!	!	!	!
8r	.	(4B-	.	(4b-	.	8r	.	.
4r	.	.	.	.	.	4r	.	.
.	.	8Bn)	.	8bn)	.	.	.	.
2r	.	(8cL	.	(8ccL	.	8r	.	.
!	!	!	!	!	!	!LO:TX:a:i:t=cresc.	!	!
.	.	8B-X)	.	8b-X)	.	(4dd	.	V
.	.	8F'	.	8f'	.	.	.	.
.	.	8G'J	.	8g'J	.	8een)	.	vii/ii
=177	=177	=177	=177	=177	=177	=177	=177	=177
8r	.	8A-'L	.	8a-'L	.	8ff'L	.	ii6
!LO:TX:b:i:t=cresc.	!	!	!	!	!	!	!	!
(4CC	.	8E-'	.	8e-'	.	8gg'	.	.
.	.	8F'	.	8f'	.	8aa-'	.	V65
8DD	.	8F'J	.	8B-'J	.	8bb-'J	.	.
8EE-L)	.	8GL	.	8e-L	.	8bb-L	.	I
8B-'	.	8E-	.	8g	.	8bb-	.	.
8f'	.	8D	.	8a-	.	8bb-	.	V7
8B-'J	.	8DJ	.	8a-J	.	8bb-J	.	.
=178	=178	=178	=178	=178	=178	=178	=178	=178
[2e-	p	8E-	p	8gL	p	8bb-L	p	I
.	.	8r	.	8b-	.	8gg	.	.
.	.	4r	.	8b-	.	8gg	.	.
.	.	.	.	8b-J	.	8ggJ	.	.
(16e-LL]	.	2r	.	4b-	.	4gg	.	.
16d	.	.	.	.	.	.	.	.
16c	.	.	.	.	.	.	.	.
16B-JJ	.	.	.	.	.	.	.	.
16cLL	.	.	.	4r	.	4r	.	.
16d	.	.	.	.	.	.	.	.
16e-	.	.	.	.	.	.	.	.
16fJJ)	.	.	.	.	.	.	.	.
=179	=179	=179	=179	=179	=179	=179	=179	=179
[2g	.	[2e-	.	8r	.	8r	.	.
.	.	.	.	8ee-L	.	8ggL	.	.
.	.	.	.	8ee-	.	8gg	.	.
.	.	.	.	8ee-J	.	8ggJ	.	.
(16gLL]	.	(16e-LL]	.	4ee-	.	4gg	.	.
16f	.	16d	.	.	.	.	.	.
16e-	.	16c	.	.	.	.	.	.
16dJJ	.	16B-JJ	.	.	.	.	.	.
16e-LL	.	16cLL	.	4r	.	4r	.	.
16f	.	16d	.	.	.	.	.	.
16g	.	16e-	.	.	.	.	.	.
16a-JJ)	.	16fJJ)	.	.	.	.	.	.
=180	=180	=180	=180	=180	=180	=180	=180	=180
(16b-LL	.	(16gLL	.	[2ee-	.	2r	.	.
16cc	.	16a-	.	.	.	.	.	.
16dd	.	16b-	.	.	.	.	.	.
16ee-JJ	.	16ccJJ	.	.	.	.	.	.
16ddLL	.	16b-LL	.	.	.	.	.	.
16cc	.	16a-	.	.	.	.	.	.
16b-	.	16g	.	.	.	.	.	.
16a-JJ)	.	16fJJ	.	.	.	.	.	.
(16gLL	.	8e-)	.	(16ee-LL]	.	[2ee-	.	.
16a-	.	.	.	16dd	.	.	.	.
16b-	.	8r	.	16cc	.	.	.	.
16ccJJ	.	.	.	16b-JJ	.	.	.	.
16b-LL	.	4r	.	16ccLL	.	.	.	.
16a-	.	.	.	16dd	.	.	.	.
16g	.	.	.	16ee-	.	.	.	.
16fJJ)	.	.	.	16ffJJ)	.	.	.	.
=181	=181	=181	=181	=181	=181	=181	=181	=181
8e-	.	(16GLL	.	(16ggLL	.	(16ee-LL]	.	I6
.	.	16A-	.	16ff	.	16dd	.	.
8r	.	16B-	.	16ee-	.	16cc	.	.
.	.	16cJJ	.	16ddJJ	.	16b-JJ	.	.
4r	.	16B-LL	.	16ee-LL	.	16ccLL	.	.
.	.	16A-	.	16ff	.	16dd	.	.
.	.	16G	.	16gg	.	16ee-	.	.
*clefF4	*	*	*	*	*	*	*	*
16ryy	.	8E-)	.	8bb-)	.	(16ggLL	.	V7
16C	.	.	.	.	.	16ff	.	.
16D	.	8r	.	8r	.	16ee-	.	.
16E-JJ	.	.	.	.	.	16ddJJ	.	.
16DLL	.	4r	f	4r	.	16ee-LL	.	.
16C	.	.	.	.	.	16ff	.	.
16BB-	.	.	.	.	.	16gg	.	.
16AA-JJ)	.	.	.	.	.	16aa-JJ)	.	.
=182	=182	=182	=182	=182	=182	=182	=182	=182
!LO:TX:b:i:t=cresc.	!	!	!	!	!	!LO:TX:b:i:t=cresc.	!	!
(16GGLL	.	2r	.	2r	.	(4bb-'	.	I6
16AA-	.	.	.	.	.	.	.	.
16BB-	.	.	.	.	.	.	.	.
16CJJ	.	.	.	.	.	.	.	.
16BB-LL	.	.	.	.	.	4ccc'	.	.
16AA-	.	.	.	.	.	.	.	.
16GG	.	.	.	.	.	.	.	.
16FFJJ)	.	.	.	.	.	.	.	.
8EE-'L	.	4r	.	4r	.	4ddd'	.	I
8DD'	.	.	.	.	.	.	.	.
8CC'	.	8r	.	8r	.	4eee-')	.	vi
!	!	!LO:TX:a:i:t=cresc.	!	!LO:TX:a:i:t=cresc.	!	!	!	!
8BB-'J	.	(8G	.	8e- 8cc	.	.	.	.
=183	=183	=183	=183	=183	=183	=183	=183	=183
(2AAn	.	4F	.	4e- 4cc	.	(4eee-	.	V65/V
.	.	2f	.	(4c	.	2e-)	.	vii%65
2AA-X)	.	.	.	4c-X	.	.	.	.
.	.	4F)	.	4B-) 4d	.	(12fL	.	V2
.	.	.	.	.	.	12g	.	.
.	.	.	.	.	.	12a-J)	.	.
=184	=184	=184	=184	=184	=184	=184	=184	=184
4GG	p	4G	p	4B-	p	(2.b-	p	I6
4r	.	4r	.	4r	.	.	.	.
(16GGLL	.	2r	.	[2b-	.	.	.	.
16AA-	.	.	.	.	.	.	.	.
16BB-	.	.	.	.	.	.	.	.
16CJJ	.	.	.	.	.	.	.	.
16BB-LL	.	.	.	.	.	4dd-X	.	iio/ii
16AA-	.	.	.	.	.	.	.	.
16GG	.	.	.	.	.	.	.	.
16FFJJ	.	.	.	.	.	.	.	.
=185	=185	=185	=185	=185	=185	=185	=185	=185
8EEn)	.	(16GLL	.	4b-]	.	4cc	.	V65/ii
.	.	16A-	.	.	.	.	.	.
8r	.	16B-	.	.	.	.	.	.
.	.	16cJJ	.	.	.	.	.	.
4r	.	16B-LL	.	(4dd-X	.	4gg	.	.
.	.	16A-	.	.	.	.	.	.
.	.	16G	.	.	.	.	.	.
.	.	16FJJ	.	.	.	.	.	.
2r	.	8En)	.	4cc	.	4g	.	.
.	.	8r	.	.	.	.	.	.
.	.	4r	.	8eenL	.	4cc	.	.
.	.	.	.	8ggJ)	.	.	.	.
=186	=186	=186	=186	=186	=186	=186	=186	=186
(16FFLL	.	2r	.	(4g	.	4b-	.	ii(94)
16GG	.	.	.	.	.	.	.	.
16AA-	.	.	.	.	.	.	.	.
16BB-JJ	.	.	.	.	.	.	.	.
16CLL	.	.	.	4cc	.	2a-)	.	ii
16BB-	.	.	.	.	.	.	.	.
16AA-	.	.	.	.	.	.	.	.
16GGJJ	.	.	.	.	.	.	.	.
8FF)	.	(16FLL	.	8b-	.	.	.	.
.	.	16G	.	.	.	.	.	.
8r	.	16A-	.	[4.a-)	.	.	.	.
.	.	16B-JJ	.	.	.	.	.	.
4r	.	16A-LL	.	.	.	(4ccc	.	.
.	.	16G	.	.	.	.	.	.
.	.	16F	.	.	.	.	.	.
.	.	16E-XJJ	.	.	.	.	.	.
=187	=187	=187	=187	=187	=187	=187	=187	=187
(16FFLL	.	8D)	.	(8a-L]	.	4bb-	.	V43
16GG	.	.	.	.	.	.	.	.
16AA-	.	8r	.	8cc	.	.	.	.
16BB-JJ	.	.	.	.	.	.	.	.
16AA-LL	.	4r	.	8b-	.	4fff	.	.
16GG	.	.	.	.	.	.	.	.
16FF	.	.	.	8ffJ)	.	.	.	.
16EE-JJ	.	.	.	.	.	.	.	.
8DDL)	.	(16FLL	.	8r	.	4ff	.	V65
.	.	16G	.	.	.	.	.	.
(16FL	.	16A-	.	(8fL	.	.	.	.
16GJJ	.	16B-JJ	.	.	.	.	.	.
16A-LL	.	16cLL	.	8B-	.	4bb-)	.	.
16B-	.	16d	.	.	.	.	.	.
16c	.	16e-	.	8fJ)	.	.	.	.
16dJJ)	.	16fJJ)	.	.	.	.	.	.
=188	=188	=188	=188	=188	=188	=188	=188	=188
!LO:TX:b:i:t=cresc.	!	!LO:TX:b:i:t=cresc.	!	!LO:TX:b:i:t=cresc.	!	!LO:TX:b:i:t=cresc.	!	!
2.e-	.	4g	.	(16e-LL	.	(4aa-	.	I(4)
.	.	.	.	16f	.	.	.	.
.	.	.	.	16e-	.	.	.	.
.	.	.	.	16fJJ	.	.	.	.
.	.	(16e-LL	.	16gLL	.	2g) 2gg	.	I
.	.	16f	.	16a-	.	.	.	.
.	.	16e-	.	16g	.	.	.	.
.	.	16fJJ	.	16a-JJ	.	.	.	.
.	.	16gLL	.	16b-LL	.	.	.	.
.	.	16a-	.	16cc	.	.	.	.
.	.	16g	.	16b-	.	.	.	.
.	.	16a-JJ)	.	16ccJJ)	.	.	.	.
(4e-	.	8b-'L	.	8dd-X'L	.	4g 4gg	.	V/IV
.	.	8b-'J	.	8dd-'J	.	.	.	.
=189	=189	=189	=189	=189	=189	=189	=189	=189
2d)	.	2bn	.	2ddn	.	1g [1gg	.	V7/ii
2c	.	2b-X	.	2een	.	.	.	.
=190	=190	=190	=190	=190	=190	=190	=190	=190
4f	.	4a-	.	(8ccL	.	(8ggL]	.	ii
.	.	.	.	8f)	.	8ff)	.	.
(2AA-	.	(2F	.	(8g'	.	(8gg'	.	ii6
.	.	.	.	8a-'J)	.	8aa-'J)	.	.
.	.	.	.	(4c	.	(4cc	.	.
4AAn)	.	4F#X)	.	4d)	.	4dd)	.	V64/iii
=191	=191	=191	=191	=191	=191	=191	=191	=191
(8BB-L	.	2G	.	2e-	.	2ee-	.	V(64)
8AAn)	.	.	.	.	.	.	.	.
(8BB-'	.	.	.	.	.	.	.	.
8C'J)	.	.	.	.	.	.	.	.
4.BB-	.	(8A-L	.	4.d	.	4.ff	.	V7
.	.	8G)	.	.	.	.	.	.
.	.	(8A-'	.	.	.	.	.	.
8BB-	.	8Fn'J)	.	8d	.	8b-	.	.
=192	=192	=192	=192	=192	=192	=192	=192	=192
4E-	p	4G	p	4g	p	(16e-LL	p	I
.	.	.	.	.	.	16f	.	.
.	.	.	.	.	.	16e-	.	.
.	.	.	.	.	.	16fJJ	.	.
!LO:TX:b:i:t=cresc.	!	!LO:TX:b:i:t=cresc.	!	!LO:TX:b:i:t=cresc.	!	!LO:TX:b:i:t=cresc.	!	!
2EE-	.	(16E-LL	.	2G 2g	.	16gLL	.	.
.	.	16F	.	.	.	16a-	.	.
.	.	16E-	.	.	.	16g	.	.
.	.	16FJJ	.	.	.	16a-JJ	.	.
.	.	16GLL	.	.	.	16b-LL	.	.
.	.	16A-	.	.	.	16cc	.	.
.	.	16G	.	.	.	16b-	.	.
.	.	16A-JJ)	.	.	.	16ccJJ)	.	.
(4EE-	.	8B-'L	.	4G 4g	.	8dd-X'L	.	V7/IV
.	.	8B-'J	.	.	.	8dd-'J	.	.
=193	=193	=193	=193	=193	=193	=193	=193	=193
2DD)	.	(4Bn	.	[1G [1g	.	(2ddn	.	V43/vi
.	.	4bn	.	.	.	.	.	.
2CC	.	4b-X	.	.	.	2een)	.	V7/ii
.	.	4B-X)	.	.	.	.	.	.
=194	=194	=194	=194	=194	=194	=194	=194	=194
(8FFL	.	4A-	.	8GL] 8g]	.	4ff	.	ii
8F	.	.	.	(8f	.	.	.	.
8En	.	4a-	.	8en	.	4aa-	.	.
8FJ	.	.	.	8fJ	.	.	.	.
8GL	.	4r	.	8gL	.	4r	.	.
8A-	.	.	.	8a-	.	.	.	.
8C	.	4a-	.	8c	.	4aa-	.	.
8FJ)	.	.	.	8fJ)	.	.	.	.
=195	=195	=195	=195	=195	=195	=195	=195	=195
(8FL	.	4r	.	(8fL	.	4r	.	V7
8E-X	.	.	.	8e-X	.	.	.	.
8BB-	.	4g	.	8B-	.	4bb-	.	.
8CJ	.	.	.	8cJ	.	.	.	.
8BB-L	.	4r	.	8B-L	.	4r	.	.
8C)	.	.	.	8c)	.	.	.	.
8BB-'	.	4d	.	8B-'	.	4bb-	.	.
8BB-'J	.	.	.	8B-'J	.	.	.	.
=196	=196	=196	=196	=196	=196	=196	=196	=196
[2EE-	.	[2E-	f	[2B-	f	[2gg	f	I
8EE-L]	.	8E-L]	.	8B-L]	.	8ggL]	.	.
8DD	sf	8F	sf	8b-	sf	8bb-	sf	V6
8EE-	.	8E-	.	8B-	.	8gg	.	I
8EE-J	.	8E-J	.	8B-J	.	8ggJ	.	.
=197	=197	=197	=197	=197	=197	=197	=197	=197
8EE-L	.	8E-L	.	8B-L	.	8ggL	.	.
8DD	sf	8F	sf	8b-	sf	8bb-	sf	V6
8EE-	.	8E-	.	8B-	.	8gg	.	.
8EE-J	.	8E-J	.	8B-J	.	8ggJ	.	.
8EE-L	.	8E-L	.	8B-L	.	8ggL	.	.
8BB-	sf	8F	sf	8B-	sf	8aa-	sf	V7
8BB-	.	8D	.	8B-	.	8ff	.	.
8BB-J	.	8DJ	.	8B-J	.	8ffJ	.	.
=198	=198	=198	=198	=198	=198	=198	=198	=198
(8BB-L	.	(8DL	.	4B-	.	(8ffL	.	V
8EE-J)	.	8E-J)	.	.	.	8ggJ)	.	I
4EE-	.	4E-	.	4B-	.	4gg	.	.
8r	.	8r	.	8r	.	8r	.	.
!LO:TX:b:i:t=dim.	!	!LO:TX:a:i:t=dim.	!	!LO:TX:a:i:t=dim.	!	!LO:TX:a:i:t=dim.	!	!
8BB-L	.	8FL	.	8B-L	.	8a-L	.	V7
8BB-	.	8D	.	8B-	.	8f	.	.
8BB-J	.	8DJ	.	8B-J	.	8fJ	.	.
=199	=199	=199	=199	=199	=199	=199	=199	=199
(8BB-L	.	(8DL	.	4B-	.	(8fL	.	V
8EE-J)	.	8E-J)	.	.	.	8gJ)	.	I
4EE-	.	4E-	.	4B-	.	4g	.	.
8r	.	8r	.	8r	.	8r	.	.
8BB-L	.	8FL	.	8B-L	.	8a-L	.	V7
8BB-	.	8D	.	8B-	.	8f	.	.
8EE-J	.	8E-J	.	8B-J	.	8gJ	.	I
=200	=200	=200	=200	=200	=200	=200	=200	=200
4EE-	.	4E-	.	4B-	.	4g	.	I
4r	.	4r	.	4r	.	4r	.	.
4EE-	.	4E-	.	4B-	.	4g	.	.
4r	.	4r	.	4r	.	4r	.	.
=201	=201	=201	=201	=201	=201	=201	=201	=201
(4EE-'	.	(4E-'	.	(4B-'	.	(4g'	.	.
4EE-'	.	4E-'	.	4B-'	.	4g'	.	.
4EE-'	.	4E-'	.	4B-'	.	4g'	.	.
4EE-')	.	4E-')	.	4B-')	.	4g')	.	.
=202	=202	=202	=202	=202	=202	=202	=202	=202
1EE-	pp	1E-	pp	1B-	pp	1g	pp	.
=203	=203	=203	=203	=203	=203	=203	=203	=203
1EE-	.	1E-	.	1B-	.	1g	.	.
=204	=204	=204	=204	=204	=204	=204	=204	=204
8EE-L	ppp	4E-	ppp	4B-	ppp	4g	ppp	.
8D	.	.	.	.	.	.	.	.
8E-	.	4r	.	4r	.	4r	.	.
8E-J	.	.	.	.	.	.	.	.
4E-	.	8r	.	8r	.	8r	.	.
.	.	8dL	.	8fL	.	8b-L	.	V6
4r	.	8e-	.	8B-	.	8g	.	I
.	.	8e-J	.	8B-J	.	8gJ	.	.
=205	=205	=205	=205	=205	=205	=205	=205	=205
8r	.	4e-	.	4B-	.	4g	.	I
8DL	.	.	.	.	.	.	.	.
8E-	.	4r	.	4r	.	4r	.	.
8E-J	.	.	.	.	.	.	.	.
4BBn	.	8r	.	8r	.	8r	.	V6/vi
.	.	8BnL	.	8dL	.	8gL	.	.
4r	.	8c	.	8G	.	8e-	.	vi
.	.	8cJ	.	8GJ	.	8e-J	.	.
=206	=206	=206	=206	=206	=206	=206	=206	=206
8r	.	4c	.	4G	.	4e-	.	.
8BBnL	.	.	.	.	.	.	.	.
8C	.	4r	.	4r	.	4r	.	.
8CJ	.	.	.	.	.	.	.	.
4FF#X	.	8r	.	8r	.	8r	.	#viio7/iii
.	.	8AnL	.	8cL	.	8e-L	.	.
4r	.	8c	.	8An	.	8d	.	V65/iii
.	.	8cJ	.	8AJ	.	8dJ	.	.
=207	=207	=207	=207	=207	=207	=207	=207	=207
4F#X	.	4D 4c	.	4An	.	4d	.	.
4r	.	4r	.	4r	.	4r	.	.
4F#	.	4D 4c	.	4A	.	4d	.	.
4r	.	4r	.	4r	.	4r	.	.
=208	=208	=208	=208	=208	=208	=208	=208	=208
(4F#X'	.	(4D' 4c	.	(4An'	.	(4d'	.	.
4F#'	.	4D' 4c	.	4A'	.	4d'	.	.
4F#'	.	4D' 4c	.	4A'	.	4d'	.	.
4F#')	.	4D') 4c	.	4A')	.	4d')	.	.
=209	=209	=209	=209	=209	=209	=209	=209	=209
1F#X	.	1D 1c	.	1An	.	1d	.	.
=210	=210	=210	=210	=210	=210	=210	=210	=210
1FF#X	.	1An	.	1c	.	1d	.	.
=211	=211	=211	=211	=211	=211	=211	=211	=211
1FFn	.	1A-X	.	1Bn	.	1d	.	#viio43/ii
=212	=212	=212	=212	=212	=212	=212	=212	=212
(2FF	.	(2A-	.	(2Bn	.	(2d	.	.
2EE-)	.	2G)	.	2c)	.	2e-)	.	ii6
=213	=213	=213	=213	=213	=213	=213	=213	=213
1DD	.	1F	.	1d	.	1f	.	viio
=214	=214	=214	=214	=214	=214	=214	=214	=214
(2DD	.	(2F	.	(2d	.	(2f	.	.
4CC	.	2E-)	.	2e-)	.	2g)	.	ii
4C)	.	.	.	.	.	.	.	.
=215	=215	=215	=215	=215	=215	=215	=215	=215
!LO:TX:b:i:t=poco cresc.	!	!	!	!	!	!LO:TX:a:i:t=poco cresc.	!	!
1BBn 1D	.	4D	.	4f	.	(4a-	.	#viio7/ii
.	.	4r	.	4r	.	8fL	.	.
.	.	.	.	.	.	8gJ	.	.
!	!	!LO:TX:a:i:t=poco cresc.	!	!LO:TX:a:i:t=poco cresc.	!	!	!	!
.	.	(4f	.	(4aa-	.	4a-	.	.
.	.	8dL	.	8ffL	.	4d)	.	.
.	.	8e-J	.	8ggJ	.	.	.	.
=216	=216	=216	=216	=216	=216	=216	=216	=216
1BBn 1D	.	4f	.	4aa-	.	(4a-	.	.
.	.	4Bn)	.	4dd)	.	8fL	.	.
.	.	.	.	.	.	8gJ	.	.
.	.	(4f	.	(4aa-	.	4a-	.	.
.	.	8dL	.	8ffL	.	4Bn)	.	.
.	.	8e-J	.	8ggJ	.	.	.	.
=217	=217	=217	=217	=217	=217	=217	=217	=217
1BB-X 1D	.	4f	.	4aa-	.	(4a-	.	V[V7
.	.	4B-X)	.	4dd)	.	8fL	.	.
.	.	.	.	.	.	8gJ	.	.
.	.	(4f	.	(4aa-	.	4a-	.	.
.	.	8dL	.	8ffL	.	4B-X)	.	.
.	.	8e-J)	.	8ggJ)	.	.	.	.
=218	=218	=218	=218	=218	=218	=218	=218	=218
!LO:TX:a:i:t=pi cresc.	!	!LO:TX:a:i:t=pi cresc.	!	!LO:TX:a:i:t=pi cresc.	!	!LO:TX:a:i:t=pi cresc.	!	!
1BB- 1E-	.	(4e-	.	(4gg	.	(4g	.	I
.	.	4G)	.	4b-)	.	8e-L	.	.
.	.	.	.	.	.	8fJ	.	.
.	.	(4e-	.	(4gg	.	4g	.	.
.	.	8GL	.	8ee-L	.	4B-)	.	.
.	.	8B-J	.	8ggJ	.	.	.	.
=219	=219	=219	=219	=219	=219	=219	=219	=219
1BB- 1F	.	4A-	.	4ff	.	(4f	.	V7
.	.	4F)	.	4a-)	.	8dL	.	.
.	.	.	.	.	.	8e-J	.	.
.	.	(4A-	.	(4ff	.	4f	.	.
.	.	8FL	.	8ddL	.	4A-)	.	.
.	.	8A-J	.	8ffJ	.	.	.	.
=220	=220	=220	=220	=220	=220	=220	=220	=220
2.BB- 2.G	.	4G	.	4ee-	.	(4e-	.	I
.	.	4E-)	.	4g)	.	8B-L	.	.
.	.	.	.	.	.	8dJ	.	.
.	.	(4G	.	(4ee-	.	4e-	.	.
4BB-	.	8e-L	.	8b-L	.	8gL	.	.
.	.	8g-XJ)	.	8ccJ)	.	8e-J)	.	.
=221	=221	=221	=221	=221	=221	=221	=221	=221
!	!	!	!	!	!LO:DY:a	!	!	!
4BB-'	f	4g-X'	f	4e-' 4cc	f f	(16AnLL	.	#viio7/V]
.	.	.	.	.	.	16c)	.	.
.	.	.	.	.	.	16e-'	.	.
.	.	.	.	.	.	16g-X'JJ	.	.
4r	.	4r	.	4r	.	16anLL	.	.
.	.	.	.	.	.	16g-	.	.
.	.	.	.	.	.	16e-	.	.
.	.	.	.	.	.	16cJJ	.	.
!LO:TX:a:t=pizz.	!	!	!	!	!	!	!	!
4BB-	.	2r	.	2r	.	(16ALL	.	.
.	.	.	.	.	.	16c)	.	.
.	.	.	.	.	.	16e-'	.	.
.	.	.	.	.	.	16g-'JJ	.	.
4E-	.	.	.	.	.	16aLL	.	.
.	.	.	.	.	.	16g-	.	.
.	.	.	.	.	.	16e-	.	.
.	.	.	.	.	.	16cJJ	.	.
=222	=222	=222	=222	=222	=222	=222	=222	=222
!	!	!LO:TX:a:t=pizz.	!	!	!	!	!	!
4G-X	.	4G-X	.	1r	.	(16AnLL	.	.
.	.	.	.	.	.	16c)	.	.
.	.	.	.	.	.	16e-'	.	.
.	.	.	.	.	.	16g-X'JJ	.	.
4r	.	4An	.	.	.	16anLL	.	.
.	.	.	.	.	.	16g-	.	.
.	.	.	.	.	.	16e-	.	.
.	.	.	.	.	.	16cJJ	.	.
2r	.	4c	.	.	.	(16ALL	.	.
.	.	.	.	.	.	16c)	.	.
.	.	.	.	.	.	16e-'	.	.
.	.	.	.	.	.	16g-'JJ	.	.
.	.	4e-	.	.	.	16aLL	.	.
.	.	.	.	.	.	16g-	.	.
.	.	.	.	.	.	16e-	.	.
.	.	.	.	.	.	16cJJ	.	.
=223	=223	=223	=223	=223	=223	=223	=223	=223
!	!	!	!	!LO:TX:a:t=pizz.	!	!	!	!
1r	.	4g-X	.	4an	.	(16AnLL	.	.
.	.	.	.	.	.	16c)	.	.
.	.	.	.	.	.	16e-'	.	.
.	.	.	.	.	.	16g-X'JJ	.	.
.	.	4r	.	4cc	.	16anLL	.	.
.	.	.	.	.	.	16g-	.	.
.	.	.	.	.	.	16e-	.	.
.	.	.	.	.	.	16cJJ	.	.
.	.	2r	.	4ee-	.	(16ALL	.	.
.	.	.	.	.	.	16c)	.	.
.	.	.	.	.	.	16e-'	.	.
.	.	.	.	.	.	16g-'JJ	.	.
.	.	.	.	4gg-X	.	16aLL	.	.
.	.	.	.	.	.	16g-	.	.
.	.	.	.	.	.	16e-	.	.
.	.	.	.	.	.	16cJJ	.	.
=224	=224	=224	=224	=224	=224	=224	=224	=224
2r	.	2r	.	4aan	.	(16AnLL	.	.
.	.	.	.	.	.	16c)	.	.
.	.	.	.	.	.	16e-'	.	.
.	.	.	.	.	.	16g-X'JJ	.	.
.	.	.	.	4ccc	.	16anLL	.	.
.	.	.	.	.	.	16g-	.	.
.	.	.	.	.	.	16e-	.	.
.	.	.	.	.	.	16cJJ	.	.
4r	.	4r	.	4eee-	.	(16ALL	.	.
.	.	.	.	.	.	16c)	.	.
.	.	.	.	.	.	16e-'	.	.
.	.	.	.	.	.	16g-'JJ	.	.
!LO:TX:a:t=arco	!	!LO:TX:a:t=arco	!	!	!	!	!	!
4AAn'	.	4G-X'	.	4r	.	16aLL	.	.
.	.	.	.	.	.	16g-	.	.
.	.	.	.	.	.	16e-	.	.
.	.	.	.	.	.	16cJJ	.	.
=225	=225	=225	=225	=225	=225	=225	=225	=225
!	!	!	!	!LO:TX:a:t=arco	!	!	!	!
4AA-X'	f	4F'	f	4d' 4cc-X	f	(16dLL	.	viio43
.	.	.	.	.	.	16f)	.	.
.	.	.	.	.	.	16a-X	.	.
.	.	.	.	.	.	16cc-XJJ	.	.
4r	.	4r	.	4r	.	16ddLL	.	.
.	.	.	.	.	.	16cc-	.	.
.	.	.	.	.	.	16a-	.	.
.	.	.	.	.	.	16fJJ	.	.
!LO:TX:a:t=pizz.	!	!	!	!	!	!	!	!
4AA-	.	2r	.	2r	.	16fLL	.	.
.	.	.	.	.	.	16a-	.	.
.	.	.	.	.	.	16cc-	.	.
.	.	.	.	.	.	16ddJJ	.	.
4D	.	.	.	.	.	16ffLL	.	.
.	.	.	.	.	.	16dd	.	.
.	.	.	.	.	.	16cc-	.	.
.	.	.	.	.	.	16a-JJ	.	.
=226	=226	=226	=226	=226	=226	=226	=226	=226
!	!	!LO:TX:a:t=pizz.	!	!	!	!	!	!
4F	.	4F	.	1r	.	16dLL	.	.
.	.	.	.	.	.	16a-	.	.
.	.	.	.	.	.	16cc-X	.	.
.	.	.	.	.	.	16ddJJ	.	.
4r	.	4A-X	.	.	.	16ffLL	.	.
.	.	.	.	.	.	16dd	.	.
.	.	.	.	.	.	16cc-	.	.
.	.	.	.	.	.	16a-JJ	.	.
2r	.	4c-X	.	.	.	16dLL	.	.
.	.	.	.	.	.	16cc-	.	.
.	.	.	.	.	.	16aa-	.	.
.	.	.	.	.	.	16cc-JJ	.	.
.	.	4d	.	.	.	16aa-LL	.	.
.	.	.	.	.	.	16cc-	.	.
.	.	.	.	.	.	16d	.	.
.	.	.	.	.	.	16cc-JJ	.	.
=227	=227	=227	=227	=227	=227	=227	=227	=227
!	!	!	!	!LO:TX:a:t=pizz.	!	!	!	!
1r	.	1r	.	4f	.	16dLL	.	.
.	.	.	.	.	.	16cc-X	.	.
.	.	.	.	.	.	16aa-	.	.
.	.	.	.	.	.	16cc-JJ	.	.
.	.	.	.	4a-X	.	16aa-LL	.	.
.	.	.	.	.	.	16cc-	.	.
.	.	.	.	.	.	16d	.	.
.	.	.	.	.	.	16cc-JJ	.	.
.	.	.	.	4cc-X	.	16dLL	.	.
.	.	.	.	.	.	16cc-	.	.
.	.	.	.	.	.	16aa-	.	.
.	.	.	.	.	.	16cc-JJ	.	.
.	.	.	.	4dd	.	16aa-LL	.	.
.	.	.	.	.	.	16cc-	.	.
.	.	.	.	.	.	16d	.	.
.	.	.	.	.	.	16cc-JJ	.	.
=228	=228	=228	=228	=228	=228	=228	=228	=228
2r	.	2r	.	4ff	.	16dLL	.	.
.	.	.	.	.	.	16cc-X	.	.
.	.	.	.	.	.	16aa-	.	.
.	.	.	.	.	.	16cc-JJ	.	.
.	.	.	.	4aa-	.	16aa-LL	.	.
.	.	.	.	.	.	16cc-	.	.
.	.	.	.	.	.	16d	.	.
.	.	.	.	.	.	16cc-JJ	.	.
4r	.	4r	.	4ccc-X	.	16dLL	.	.
.	.	.	.	.	.	16cc-	.	.
.	.	.	.	.	.	16aa-	.	.
.	.	.	.	.	.	16cc-JJ	.	.
!LO:TX:a:t=arco	!	!LO:TX:a:t=arco	!	!	!	!	!	!
4F'	.	4A-'	.	4r	.	16aa-LL	.	.
.	.	.	.	.	.	16cc-	.	.
.	.	.	.	.	.	16d	.	.
.	.	.	.	.	.	16cc-JJ	.	.
=229	=229	=229	=229	=229	=229	=229	=229	=229
!	!	!	!	!LO:TX:a:t=arco	!	!	!	!
4GG'	f	4Gn' 4B-	f	4en' 4dd-X	f	16enLL	.	#viio65/ii
.	.	.	.	.	.	16dd-X	.	.
.	.	.	.	.	.	16bb-	.	.
.	.	.	.	.	.	16dd-JJ	.	.
4r	.	4r	.	4r	.	16bb-LL	.	.
.	.	.	.	.	.	16dd-	.	.
.	.	.	.	.	.	16e	.	.
.	.	.	.	.	.	16dd-JJ	.	.
!LO:TX:a:t=pizz.	!	!	!	!	!	!	!	!
4GG	.	2r	.	2r	.	16eLL	.	.
.	.	.	.	.	.	16dd-	.	.
.	.	.	.	.	.	16bb-	.	.
.	.	.	.	.	.	16dd-JJ	.	.
4BB-	.	.	.	.	.	16bb-LL	.	.
.	.	.	.	.	.	16dd-	.	.
.	.	.	.	.	.	16e	.	.
.	.	.	.	.	.	16dd-JJ	.	.
=230	=230	=230	=230	=230	=230	=230	=230	=230
!	!	!LO:TX:a:t=pizz.	!	!	!	!	!	!
4D-X	.	4D-X	.	1r	.	16enLL	.	.
.	.	.	.	.	.	16dd-X	.	.
.	.	.	.	.	.	16bb-	.	.
.	.	.	.	.	.	16dd-JJ	.	.
4r	.	4En	.	.	.	16bb-LL	.	.
.	.	.	.	.	.	16dd-	.	.
.	.	.	.	.	.	16e	.	.
.	.	.	.	.	.	16dd-JJ	.	.
2r	.	4G	.	.	.	16eLL	.	.
.	.	.	.	.	.	16dd-	.	.
.	.	.	.	.	.	16bb-	.	.
.	.	.	.	.	.	16dd-JJ	.	.
.	.	4B-	.	.	.	16bb-LL	.	.
.	.	.	.	.	.	16dd-	.	.
.	.	.	.	.	.	16e	.	.
.	.	.	.	.	.	16dd-JJ	.	.
=231	=231	=231	=231	=231	=231	=231	=231	=231
!	!	!	!	!LO:TX:a:t=pizz.	!	!	!	!
1r	.	1r	.	4d-X	.	16enLL	.	.
.	.	.	.	.	.	16dd-X	.	.
.	.	.	.	.	.	16bb-	.	.
.	.	.	.	.	.	16dd-JJ	.	.
.	.	.	.	4en	.	16bb-LL	.	.
.	.	.	.	.	.	16dd-	.	.
.	.	.	.	.	.	16e	.	.
.	.	.	.	.	.	16dd-JJ	.	.
.	.	.	.	4g	.	16eLL	.	.
.	.	.	.	.	.	16dd-	.	.
.	.	.	.	.	.	16bb-	.	.
.	.	.	.	.	.	16dd-JJ	.	.
.	.	.	.	4b-	.	16bb-LL	.	.
.	.	.	.	.	.	16dd-	.	.
.	.	.	.	.	.	16e	.	.
.	.	.	.	.	.	16dd-JJ	.	.
=232	=232	=232	=232	=232	=232	=232	=232	=232
2r	.	4en	.	4dd-X	.	16enLL	.	.
.	.	.	.	.	.	16dd-X	.	.
.	.	.	.	.	.	16bb-	.	.
.	.	.	.	.	.	16dd-JJ	.	.
.	.	4g	.	4r	.	16bb-LL	.	.
.	.	.	.	.	.	16dd-	.	.
.	.	.	.	.	.	16e	.	.
.	.	.	.	.	.	16dd-JJ	.	.
!	!	!	!	!LO:TX:a:t=arco	!	!	!	!
4r	.	4b-	.	[2ccn	.	16eLL	.	V43/ii
.	.	.	.	.	.	16ccn	.	.
.	.	.	.	.	.	16bb-	.	.
.	.	.	.	.	.	16ccJJ	.	.
4GG	.	4B-	.	.	.	16ggLL	.	.
.	.	.	.	.	.	16cc	.	.
.	.	.	.	.	.	16e	.	.
.	.	.	.	.	.	16ccJJ	.	.
=233	=233	=233	=233	=233	=233	=233	=233	=233
4AA-	.	4F	.	(4cc]	.	16fLL	.	ii6
.	.	.	.	.	.	16cc	.	.
.	.	.	.	.	.	16gg	.	.
.	.	.	.	.	.	16ccJJ	.	.
4r	.	4r	.	8a-L	.	16ffLL	.	.
.	.	.	.	.	.	16cc	.	.
.	.	.	.	8b-J	.	16f	.	.
.	.	.	.	.	.	16ccJJ	.	.
!	!	!LO:TX:a:t=arco	!	!	!	!	!	!
4AA-	.	[2c	.	4cc	.	16fLL	.	.
.	.	.	.	.	.	16cc	.	.
.	.	.	.	.	.	16ff	.	.
.	.	.	.	.	.	16ccJJ	.	.
4F	.	.	.	4f)	.	16aa-LL	.	.
.	.	.	.	.	.	16cc	.	.
.	.	.	.	.	.	16f	.	.
.	.	.	.	.	.	16ccJJ	.	.
=234	=234	=234	=234	=234	=234	=234	=234	=234
4BB-	.	(4c]	.	2ddn	.	16fLL	.	V7
.	.	.	.	.	.	16ddn	.	.
.	.	.	.	.	.	16aa-	.	.
.	.	.	.	.	.	16ddJJ	.	.
4r	.	8B-L	.	.	.	16aa-LL	.	.
.	.	.	.	.	.	16dd	.	.
.	.	8cJ	.	.	.	16f	.	.
.	.	.	.	.	.	16ddJJ	.	.
4BB-	.	4d	.	[2dd	.	16gLL	.	iii6
.	.	.	.	.	.	16dd	.	.
.	.	.	.	.	.	16gg	.	.
.	.	.	.	.	.	16ddJJ	.	.
4D	.	4G)	.	.	.	16ggLL	.	.
.	.	.	.	.	.	16dd	.	.
.	.	.	.	.	.	16b-	.	.
.	.	.	.	.	.	16ddJJ	.	.
=235	=235	=235	=235	=235	=235	=235	=235	=235
4BB-	.	2d	.	(4dd]	.	16gLL	.	.
.	.	.	.	.	.	16dd	.	.
.	.	.	.	.	.	16bb-	.	.
.	.	.	.	.	.	16ddJJ	.	.
4r	.	.	.	8b-L	.	16bb-LL	.	.
.	.	.	.	.	.	16dd	.	.
.	.	.	.	8ccJ	.	16g	.	.
.	.	.	.	.	.	16ddJJ	.	.
4BB-	.	[2d	.	4dd	.	16gLL	.	.
.	.	.	.	.	.	16dd	.	.
.	.	.	.	.	.	16bb-	.	.
.	.	.	.	.	.	16ddJJ	.	.
4G	.	.	.	4g)	.	16bb-LL	.	.
.	.	.	.	.	.	16dd	.	.
.	.	.	.	.	.	16b-	.	.
.	.	.	.	.	.	16ddJJ	.	.
=236	=236	=236	=236	=236	=236	=236	=236	=236
4C	.	(4d]	.	2ee-	.	16b-LL	.	vi7(9)
.	.	.	.	.	.	16ee-	.	.
.	.	.	.	.	.	16gg	.	.
.	.	.	.	.	.	16ee-JJ	.	.
4r	.	8cL	.	.	.	16ggLL	.	vi7
.	.	.	.	.	.	16ee-	.	.
.	.	8dJ	.	.	.	16b-	.	.
.	.	.	.	.	.	16ee-JJ	.	.
4C	.	4e-	.	[2ee-	.	16ccLL	.	IV6
.	.	.	.	.	.	16ee-	.	.
.	.	.	.	.	.	16aa-	.	.
.	.	.	.	.	.	16ee-JJ	.	.
4E-	.	4A-)	.	.	.	16aa-LL	.	.
.	.	.	.	.	.	16ee-	.	.
.	.	.	.	.	.	16cc	.	.
.	.	.	.	.	.	16ee-JJ	.	.
=237	=237	=237	=237	=237	=237	=237	=237	=237
4C	.	2e-	.	(4ee-]	.	16ccLL	.	.
.	.	.	.	.	.	16ee-	.	.
.	.	.	.	.	.	16aa-	.	.
.	.	.	.	.	.	16ee-JJ	.	.
4r	.	.	.	8ccL	.	16aa-LL	.	.
.	.	.	.	.	.	16ee-	.	.
.	.	.	.	8ddJ	.	16cc	.	.
.	.	.	.	.	.	16ee-JJ	.	.
4CC	.	[2e-	.	4ee-	.	16a-LL	.	.
.	.	.	.	.	.	16cc	.	.
.	.	.	.	.	.	16ee-	.	.
.	.	.	.	.	.	16ccJJ	.	.
4AA-	.	.	.	4a-)	.	16ee-LL	.	IV
.	.	.	.	.	.	16cc	.	.
.	.	.	.	.	.	16a-	.	.
.	.	.	.	.	.	16ccJJ	.	.
=238	=238	=238	=238	=238	=238	=238	=238	=238
4DD	.	(4e-]	.	2ff	.	16a-LL	.	V65
.	.	.	.	.	.	16b-	.	.
.	.	.	.	.	.	16ff	.	.
.	.	.	.	.	.	16b-JJ	.	.
4r	.	8dL	.	.	.	16ffLL	.	.
.	.	.	.	.	.	16b-	.	.
.	.	8e-J	.	.	.	16a-	.	.
.	.	.	.	.	.	16b-JJ	.	.
4DD	.	4f	.	[2ff	.	16fLL	.	.
.	.	.	.	.	.	16a-	.	.
.	.	.	.	.	.	16b-	.	.
.	.	.	.	.	.	16a-JJ	.	.
4D	.	4B-)	.	.	.	16b-LL	.	.
.	.	.	.	.	.	16a-	.	.
.	.	.	.	.	.	16f	.	.
.	.	.	.	.	.	16a-JJ	.	.
=239	=239	=239	=239	=239	=239	=239	=239	=239
4DD	.	2f	.	(4ff]	.	16B-LL	.	.
.	.	.	.	.	.	16f	.	.
.	.	.	.	.	.	16a-	.	.
.	.	.	.	.	.	16fJJ	.	.
4r	.	.	.	8ddL	.	16a-LL	.	.
.	.	.	.	.	.	16f	.	.
.	.	.	.	8ee-J	.	16B-	.	.
.	.	.	.	.	.	16fJJ	.	.
!LO:TX:a:t=arco	!	!	!	!	!	!	!	!
8DD'L	.	[2f	.	4ff	.	16A-LL	.	.
.	.	.	.	.	.	16c	.	.
8FF'	.	.	.	.	.	16f	.	.
.	.	.	.	.	.	16B-JJ	.	.
8BB-'	.	.	.	4b-)	.	16fLL	.	.
.	.	.	.	.	.	16B-	.	.
8D'J	.	.	.	.	.	16A-	.	.
.	.	.	.	.	.	16B-JJ	.	.
=240	=240	=240	=240	=240	=240	=240	=240	=240
!	!	!	!	!	!LO:DY:a	!	!	!
2.E-	f	4f]	f	(2.gg	f f	16GLL	.	I(9)
.	.	.	.	.	.	16B-	.	.
.	.	.	.	.	.	16e-	.	.
.	.	.	.	.	.	16gJJ	.	.
.	.	(2e-	.	.	.	16B-LL	.	I
.	.	.	.	.	.	16e-	.	.
.	.	.	.	.	.	16g	.	.
.	.	.	.	.	.	16b-JJ	.	.
.	.	.	.	.	.	16gLL	.	.
.	.	.	.	.	.	16b-	.	.
.	.	.	.	.	.	16ee-	.	.
.	.	.	.	.	.	16ggJJ	.	.
4AA-	.	4f	.	4aa-)	.	16ccLL	.	ii6
.	.	.	.	.	.	16ff	.	.
.	.	.	.	.	.	16aa-	.	.
.	.	.	.	.	.	16cccJJ	.	.
=241	=241	=241	=241	=241	=241	=241	=241	=241
2BB-	.	4d	.	(2ff	.	16dLL	.	V7
.	.	.	.	.	.	16bb-	.	.
.	.	.	.	.	.	16aa-	.	.
.	.	.	.	.	.	16ffJJ	.	.
.	.	4f	.	.	.	16aa-LL	.	.
.	.	.	.	.	.	16ff	.	.
.	.	.	.	.	.	16dd	.	.
.	.	.	.	.	.	16b-JJ	.	.
2BB-	.	4A-	.	2bb-)	.	16a-LL	.	.
.	.	.	.	.	.	16f	.	.
.	.	.	.	.	.	16d	.	.
.	.	.	.	.	.	16A-JJ	.	.
.	.	4d)	.	.	.	16fLL	.	.
.	.	.	.	.	.	16d	.	.
.	.	.	.	.	.	16B-	.	.
.	.	.	.	.	.	16A-JJ	.	.
=242	=242	=242	=242	=242	=242	=242	=242	=242
!LO:TX:b:i:t=pi f	!	!LO:TX:b:i:t=pi f	!	!LO:TX:b:i:t=pi f	!	!LO:TX:b:i:t=pi f	!	!
(2.E-	.	(4B-	.	(2.gg	.	16GLL	.	I
.	.	.	.	.	.	16B-	.	.
.	.	.	.	.	.	16e-	.	.
.	.	.	.	.	.	16gJJ	.	.
.	.	4b-	.	.	.	16B-LL	.	.
.	.	.	.	.	.	16e-	.	.
.	.	.	.	.	.	16g	.	.
.	.	.	.	.	.	16b-JJ	.	.
.	.	4e-	.	.	.	16gLL	.	.
.	.	.	.	.	.	16b-	.	.
.	.	.	.	.	.	16ee-	.	.
.	.	.	.	.	.	16ggJJ	.	.
4AA-)	.	4f	.	4aa-)	.	16ccLL	.	ii6
.	.	.	.	.	.	16ff	.	.
.	.	.	.	.	.	16aa-	.	.
.	.	.	.	.	.	16cccJJ	.	.
=243	=243	=243	=243	=243	=243	=243	=243	=243
2BB-	.	4d	.	(2ff	.	16dLL	.	V7
.	.	.	.	.	.	16bb-	.	.
.	.	.	.	.	.	16aa-	.	.
.	.	.	.	.	.	16ffJJ	.	.
.	.	4f	.	.	.	16aa-LL	.	.
.	.	.	.	.	.	16ff	.	.
.	.	.	.	.	.	16dd	.	.
.	.	.	.	.	.	16b-JJ	.	.
2BB-	.	4A-	.	2bb-)	.	16a-LL	.	.
.	.	.	.	.	.	16f	.	.
.	.	.	.	.	.	16d	.	.
.	.	.	.	.	.	16A-JJ	.	.
.	.	4d)	.	.	.	16fLL	.	.
.	.	.	.	.	.	16d	.	.
.	.	.	.	.	.	16B-	.	.
.	.	.	.	.	.	16A-JJ	.	.
=244	=244	=244	=244	=244	=244	=244	=244	=244
(2.E-	.	(4B-	ff	(2.gg	ff	16GLL	ff	I
.	.	.	.	.	.	16B-	.	.
.	.	.	.	.	.	16e-	.	.
.	.	.	.	.	.	16gJJ	.	.
.	.	4b-	.	.	.	16B-LL	.	.
.	.	.	.	.	.	16e-	.	.
.	.	.	.	.	.	16g	.	.
.	.	.	.	.	.	16b-JJ	.	.
.	.	4e-	.	.	.	16gLL	.	.
.	.	.	.	.	.	16b-	.	.
.	.	.	.	.	.	16ee-	.	.
.	.	.	.	.	.	16ggJJ	.	.
4AA-)	.	4a-	.	4ccc)	.	16ccLL	.	ii6
.	.	.	.	.	.	16ee-	.	.
.	.	.	.	.	.	16aa-	.	.
.	.	.	.	.	.	16cccJJ	.	.
=245	=245	=245	=245	=245	=245	=245	=245	=245
2BB-	.	4g	.	2bb-	.	16GLL	.	V(64)
.	.	.	.	.	.	16B-	.	.
.	.	.	.	.	.	16e-	.	.
.	.	.	.	.	.	16gJJ	.	.
.	.	4G	.	.	.	16b-LL	.	.
.	.	.	.	.	.	16ee-	.	.
.	.	.	.	.	.	16gg	.	.
.	.	.	.	.	.	16bb-JJ	.	.
2BB-	.	4F	.	2dd	.	16aa-LL	.	V7
.	.	.	.	.	.	16gg	.	.
.	.	.	.	.	.	16ff	.	.
.	.	.	.	.	.	16ggJJ	.	.
.	.	4B-)	.	.	.	16aa-LL	.	.
.	.	.	.	.	.	16bb-	.	.
.	.	.	.	.	.	16ccc	.	.
.	.	.	.	.	.	16dddJJ	.	.
=246	=246	=246	=246	=246	=246	=246	=246	=246
4EE-	.	4E-	.	4g 4ee-	.	4eee-	.	I\\
4r	.	4r	.	4r	.	4r	.	.
8r	.	8r	.	8r	.	8r	.	.
8DL	sf	8B-L	sf	8bb-L	sf	8fL	sf	V6
8E-	.	8B-	.	8gg	.	8e-	.	I
8E-J	.	8B-J	.	8ggJ	.	8e-J	.	.
=247	=247	=247	=247	=247	=247	=247	=247	=247
8E-L	.	8B-L	.	8ggL	.	8e-L	.	I
8D	sf	8B-	sf	8bb-	sf	8f	sf	V6
8E-	.	8B-	.	8gg	.	8e-	.	I
8E-J	.	8B-J	.	8ggJ	.	8e-J	.	.
8E-L	.	8B-L	.	8ggL	.	8e-L	.	I
8BB-	sf	8B-	sf	8aa-	sf	8f	sf	V7
8BB-	.	8B-	.	8ff	.	8d	.	.
8BB-J	.	8B-J	.	8ffJ	.	8dJ	.	.
=248	=248	=248	=248	=248	=248	=248	=248	=248
(8BB-L	.	4B-	.	(8ffL	.	(8dL	.	V
8E-J)	.	.	.	8ggJ)	.	8e-J)	.	I
4E-	.	4B-	.	4gg	.	4e-	.	.
8r	.	8r	.	8r	.	8r	.	.
!LO:TX:b:i:t=dim.	!	!LO:TX:b:i:t=dim.	!	!LO:TX:b:i:t=dim.	!	!LO:TX:b:i:t=dim.	!	!
8BB-L	.	8B-L	.	8fL	.	8a-L	.	V7
8BB-	.	8B-	.	8d	.	8f	.	.
8BB-J	.	8B-J	.	8dJ	.	8fJ	.	.
=249	=249	=249	=249	=249	=249	=249	=249	=249
(8BB-L	.	4B-	.	(8dL	.	(8fL	.	V
8E-J)	.	.	.	8e-J)	.	8gJ)	.	I
4E-	.	4B-	.	4e-	.	4g	.	.
8r	.	8r	.	8r	.	8r	.	.
8BB-L	.	8FL	.	8a-L	.	8B-L	.	V7
8BB-	.	8D	.	8f	.	8B-	.	.
8BB-J	.	8DJ	.	8fJ	.	8B-J	.	.
=250	=250	=250	=250	=250	=250	=250	=250	=250
(8BB-L	.	(8DL	.	(8fL	.	4B-	.	V
8EE-J)	.	8E-J)	.	8gJ)	.	.	.	.
4EE-	.	4E-	.	4g	.	4B-	.	I
8r	.	8r	.	2r	.	8r	.	.
8BB-L 8F	p	8A-L	p	.	.	8B-L	p	V7
8BB- 8D	.	8F	.	.	.	8B-	.	.
8BB-J 8D	.	8FJ	.	.	.	8B-J	.	.
=251	=251	=251	=251	=251	=251	=251	=251	=251
4EE-	.	[1E- [1G	.	2r	.	[1B-	.	I
4r	.	.	.	.	.	.	.	.
!LO:TX:a:t=pizz.	!	!	!	!LO:TX:a:t=pizz.	!	!	!	!
4EE-	.	.	.	4bb-	p	.	.	.
4GG	.	.	.	4gg	.	.	.	.
=252	=252	=252	=252	=252	=252	=252	=252	=252
4BB-	.	1E-_ 1G_	.	4ee-	.	1B-_	.	.
4E-	.	.	.	4b-	.	.	.	.
4GG	.	.	.	4gg	.	.	.	.
4BB-	.	.	.	4ee-	.	.	.	.
=253	=253	=253	=253	=253	=253	=253	=253	=253
!LO:TX:b:i:t=cresc.	!	!LO:TX:b:i:t=cresc.	!	!LO:TX:b:i:t=cresc.	!	!LO:TX:b:i:t=cresc.	!	!
4E-	.	1E-_ 1G_	.	4b-	.	2B-]	.	.
4G	.	.	.	4g	.	.	.	.
4BB-	.	.	.	4ee-	.	[2B-	.	.
4E-	.	.	.	4b-	.	.	.	.
=254	=254	=254	=254	=254	=254	=254	=254	=254
4G	.	2.E-] 2.G]	.	4g	.	2.B-]	.	.
4B-	.	.	.	4e-	.	.	.	.
4e-	.	.	.	4B-	.	.	.	.
4f	f	4B-	f	4d	f	4A-	f	V7
=255	=255	=255	=255	=255	=255	=255	=255	=255
4g	.	[1E- [1G	fp	4e-	.	4G'	.	I
4r	.	.	.	4r	.	4r	.	.
!LO:TX:a:t=arco	!	!	!	!LO:TX:a:t=arco	!	!	!	!
4e-'	p	.	.	8ee-L	p	4e-'	p	.
.	.	.	.	8ee-	.	.	.	.
4B-'	.	.	.	8b-	.	4g'	.	.
.	.	.	.	8b-J	.	.	.	.
=256	=256	=256	=256	=256	=256	=256	=256	=256
4G'	.	1E-_ 1G_	.	8gL	.	4b-'	.	.
.	.	.	.	8g	.	.	.	.
4E-'	.	.	.	8e-	.	4ee-'	.	.
.	.	.	.	8e-J	.	.	.	.
4B-'	.	.	.	8b-L	.	4g'	.	.
.	.	.	.	8b-	.	.	.	.
4G'	.	.	.	8g	.	4b-'	.	.
.	.	.	.	8gJ	.	.	.	.
=257	=257	=257	=257	=257	=257	=257	=257	=257
!LO:TX:b:i:t=cresc.	!	!LO:TX:b:i:t=cresc.	!	!LO:TX:b:i:t=cresc.	!	!LO:TX:b:i:t=cresc.	!	!
4E-'	.	1E-_ 1G_	.	8e-L	.	4ee-'	.	.
.	.	.	.	8e-	.	.	.	.
4BB-'	.	.	.	8B-	.	4gg'	.	.
.	.	.	.	8B-J	.	.	.	.
4G'	.	.	.	8gL	.	4b-'	.	.
.	.	.	.	8g	.	.	.	.
4E-'	.	.	.	8e-	.	4ee-'	.	.
.	.	.	.	8e-J	.	.	.	.
=258	=258	=258	=258	=258	=258	=258	=258	=258
4BB-'	.	2E-_ 2G_	.	8B-L	.	4gg'	.	.
.	.	.	.	8b-	.	.	.	.
4GG'	.	.	.	8g	.	4bb-'	.	.
.	.	.	.	8gJ	.	.	.	.
4EE-'	f	8E-L] 8G]	f	8e-L	f	4eee-'	f	.
.	.	8B-	.	8ee-	.	.	.	.
4BB-'	.	8B-	.	8dd	.	4fff'	.	V
.	.	8B-J	.	8ddJ	.	.	.	.
=259	=259	=259	=259	=259	=259	=259	=259	=259
4EE-'	.	4B-'	.	4ee-'	.	4ggg'	.	I
4r	.	4r	.	4r	.	4r	.	.
2r	.	8GL	p	4B-'	p	4e-'	p	I6
.	.	8G	.	.	.	.	.	.
.	.	8B-	.	4d'	.	4f'	.	V
.	.	8B-J	.	.	.	.	.	.
=260	=260	=260	=260	=260	=260	=260	=260	=260
2r	.	4E-	.	4e-'	.	4g'	.	I
.	.	4r	.	4r	.	4r	.	.
4E-'	f	4G'	f	4b-'	f	4ee-'	f	.
4BB-'	.	4B-'	.	4b-'	.	4d' 4b- 4ff	.	V
=261	=261	=261	=261	=261	=261	=261	=261	=261
4E-	.	4E-	.	4e- 4b-	.	4G 4e- 4b- 4gg	.	I
4r	.	4r	.	4r	.	4r	.	.
4BB-	.	4F 4A-	.	4B- 4f 4dd	.	4d 4b- 4bb-	.	V7
4r	.	4r	.	4r	.	4r	.	.
=262	=262	=262	=262	=262	=262	=262	=262	=262
4EE-	.	4E- 4G	.	4B- 4g 4ee-	.	4G 4e-	.	I\\
4r	.	4r	.	4r	.	4r	.	.
2r	.	2r	.	2r	.	2r	.	.
=:|!	=:|!	=:|!	=:|!	=:|!	=:|!	=:|!	=:|!	=:|!
*-	*-	*-	*-	*-	*-	*-	*-	*-
!!!system-decoration: [(s1,s2,s3,s4)]
